;FLAVOR:Marlin
;TIME:13115
;Filament used: 2.41758m
;Layer height: 0.1
;MINX:29.158
;MINY:51.863
;MINZ:0.1
;MAXX:100.842
;MAXY:78.137
;MAXZ:5
;Generated with Cura_SteamEngine 4.12.1
M82 ;absolute extrusion mode
G28 ;Home
G92 E0
;LAYER_COUNT:50
;LAYER:0
M107
;MESH:2022-02-honeycomb-Body.stl
G0 F6000 X29.559 Y52.264 Z0.1
;TYPE:WALL-INNER
G1 F300 X100.441 Y52.264 E0.19744
G1 X100.441 Y77.736 E0.2684
G1 X29.559 Y77.736 E0.46584
G1 X29.559 Y52.264 E0.5368
G0 F6000 X40.227 Y57.578
G1 F300 X40.227 Y62.082 E0.54934
G1 X44.125 Y64.329 E0.56187
G1 X48.023 Y62.082 E0.57441
G1 X48.023 Y57.578 E0.58695
G1 X44.125 Y55.331 E0.59949
G1 X40.227 Y57.578 E0.61202
G0 F6000 X52.155 Y57.578
G1 F300 X52.155 Y62.082 E0.62456
G1 X56.053 Y64.329 E0.6371
G1 X59.951 Y62.082 E0.64963
G1 X59.951 Y57.578 E0.66218
G1 X56.053 Y55.331 E0.67471
G1 X52.155 Y57.578 E0.68724
G0 F6000 X64.083 Y57.578
G1 F300 X64.083 Y62.082 E0.69979
G1 X67.981 Y64.329 E0.71232
G1 X71.88 Y62.082 E0.72486
G1 X71.88 Y57.578 E0.7374
G1 X67.981 Y55.331 E0.74994
G1 X64.083 Y57.578 E0.76247
G0 F6000 X76.011 Y57.578
G1 F300 X76.011 Y62.082 E0.77502
G1 X79.91 Y64.329 E0.78755
G1 X83.808 Y62.082 E0.80009
G1 X83.808 Y57.578 E0.81263
G1 X79.91 Y55.331 E0.82516
G1 X76.011 Y57.578 E0.8377
G0 F6000 X70.047 Y67.915
G1 F300 X70.047 Y72.419 E0.85025
G1 X73.946 Y74.666 E0.86278
G1 X77.844 Y72.419 E0.87531
G1 X77.844 Y67.915 E0.88786
G1 X73.946 Y65.668 E0.90039
G1 X70.047 Y67.915 E0.91293
G0 F6000 X58.119 Y67.915
G1 F300 X58.119 Y72.419 E0.92547
G1 X62.017 Y74.666 E0.93801
G1 X65.915 Y72.419 E0.95054
G1 X65.915 Y67.915 E0.96309
G1 X62.017 Y65.668 E0.97562
G1 X58.119 Y67.915 E0.98815
G0 F6000 X46.191 Y67.915
G1 F300 X46.191 Y72.419 E1.0007
G1 X50.089 Y74.666 E1.01323
G1 X53.987 Y72.419 E1.02576
G1 X53.987 Y67.915 E1.03831
G1 X50.089 Y65.668 E1.05084
G1 X46.191 Y67.915 E1.06337
G0 F6000 X81.976 Y67.915
G1 F300 X81.976 Y72.419 E1.07592
G1 X85.874 Y74.666 E1.08845
G1 X89.772 Y72.419 E1.10099
G1 X89.772 Y67.915 E1.11353
G1 X85.874 Y65.668 E1.12607
G1 X81.976 Y67.915 E1.1386
G0 F6000 X82.043 Y67.954
G1 F300 X82.043 Y72.38 E1.15093
G1 X85.874 Y74.589 E1.16325
G1 X89.705 Y72.38 E1.17556
G1 X89.705 Y67.954 E1.18789
G1 X85.874 Y65.745 E1.20021
G1 X82.043 Y67.954 E1.21253
G0 F6000 X77.777 Y67.954
G1 F300 X73.946 Y65.745 E1.22485
G1 X70.114 Y67.954 E1.23717
G1 X70.114 Y72.38 E1.2495
G1 X73.946 Y74.589 E1.26182
G1 X77.777 Y72.38 E1.27414
G1 X77.777 Y67.954 E1.28647
G0 F6000 X79.91 Y64.252
G1 F300 X83.741 Y62.043 E1.29878
G1 X83.741 Y57.617 E1.31111
G1 X79.91 Y55.408 E1.32343
G1 X76.078 Y57.617 E1.33575
G1 X76.078 Y62.043 E1.34808
G1 X79.91 Y64.252 E1.3604
G0 F6000 X71.813 Y62.043
G1 F300 X71.813 Y57.617 E1.37273
G1 X67.981 Y55.408 E1.38505
G1 X64.15 Y57.617 E1.39737
G1 X64.15 Y62.043 E1.4097
G1 X67.981 Y64.252 E1.42202
G1 X71.813 Y62.043 E1.43434
G0 F6000 X65.848 Y67.954
G1 F300 X62.017 Y65.745 E1.44665
G1 X58.186 Y67.954 E1.45897
G1 X58.186 Y72.38 E1.4713
G1 X62.017 Y74.589 E1.48362
G1 X65.848 Y72.38 E1.49594
G1 X65.848 Y67.954 E1.50827
G0 F6000 X59.884 Y62.043
G1 F300 X59.884 Y57.617 E1.5206
G1 X56.053 Y55.408 E1.53291
G1 X52.222 Y57.617 E1.54523
G1 X52.222 Y62.043 E1.55756
G1 X56.053 Y64.252 E1.56988
G1 X59.884 Y62.043 E1.5822
G0 F6000 X53.92 Y67.954
G1 F300 X50.089 Y65.745 E1.59452
G1 X46.258 Y67.954 E1.60683
G1 X46.258 Y72.38 E1.61916
G1 X50.089 Y74.589 E1.63148
G1 X53.92 Y72.38 E1.6438
G1 X53.92 Y67.954 E1.65613
G0 F6000 X47.956 Y62.043
G1 F300 X47.956 Y57.617 E1.66846
G1 X44.125 Y55.408 E1.68078
G1 X40.294 Y57.617 E1.69309
G1 X40.294 Y62.043 E1.70542
G1 X44.125 Y64.252 E1.71774
G1 X47.956 Y62.043 E1.73006
G0 F6000 X100.508 Y77.803
G1 F300 X29.492 Y77.803 E1.92788
G1 X29.492 Y52.197 E1.9992
G1 X100.508 Y52.197 E2.19702
G1 X100.508 Y77.803 E2.26835
G0 F6000 X100.575 Y77.87
G1 F300 X29.425 Y77.87 E2.46654
G1 X29.425 Y52.13 E2.53824
G1 X100.575 Y52.13 E2.73643
G1 X100.575 Y77.87 E2.80813
G0 F6000 X89.638 Y72.341
G1 F300 X89.638 Y67.993 E2.82024
G1 X85.874 Y65.822 E2.83234
G1 X82.11 Y67.993 E2.84445
G1 X82.11 Y72.341 E2.85656
G1 X85.874 Y74.512 E2.86866
G1 X89.638 Y72.341 E2.88077
G0 F6000 X77.71 Y72.341
G1 F300 X77.71 Y67.993 E2.89288
G1 X73.946 Y65.822 E2.90498
G1 X70.181 Y67.993 E2.91709
G1 X70.181 Y72.341 E2.9292
G1 X73.946 Y74.512 E2.94131
G1 X77.71 Y72.341 E2.95341
G0 F6000 X65.781 Y72.341
G1 F300 X65.781 Y67.993 E2.96552
G1 X62.017 Y65.822 E2.97763
G1 X58.253 Y67.993 E2.98973
G1 X58.253 Y72.341 E3.00184
G1 X62.017 Y74.512 E3.01394
G1 X65.781 Y72.341 E3.02605
G0 F6000 X53.853 Y72.341
G1 F300 X53.853 Y67.993 E3.03816
G1 X50.089 Y65.822 E3.05026
G1 X46.325 Y67.993 E3.06237
G1 X46.325 Y72.341 E3.07448
G1 X50.089 Y74.512 E3.08658
G1 X53.853 Y72.341 E3.09869
G0 F6000 X47.889 Y62.004
G1 F300 X47.889 Y57.656 E3.1108
G1 X44.125 Y55.485 E3.1229
G1 X40.361 Y57.656 E3.13501
G1 X40.361 Y62.004 E3.14712
G1 X44.125 Y64.175 E3.15922
G1 X47.889 Y62.004 E3.17132
G0 F6000 X59.817 Y62.004
G1 F300 X59.817 Y57.656 E3.18344
G1 X56.053 Y55.485 E3.19554
G1 X52.289 Y57.656 E3.20764
G1 X52.289 Y62.004 E3.21976
G1 X56.053 Y64.175 E3.23186
G1 X59.817 Y62.004 E3.24396
G0 F6000 X71.746 Y62.004
G1 F300 X71.746 Y57.656 E3.25607
G1 X67.981 Y55.485 E3.26818
G1 X64.217 Y57.656 E3.28028
G1 X64.217 Y62.004 E3.2924
G1 X67.981 Y64.175 E3.3045
G1 X71.746 Y62.004 E3.31661
G0 F6000 X83.674 Y62.004
G1 F300 X83.674 Y57.656 E3.32872
G1 X79.91 Y55.485 E3.34082
G1 X76.145 Y57.656 E3.35293
G1 X76.145 Y62.004 E3.36504
G1 X79.91 Y64.175 E3.37714
G1 X83.674 Y62.004 E3.38925
G0 F6000 X83.607 Y61.965
G1 F300 X83.607 Y57.695 E3.40114
G1 X79.91 Y55.562 E3.41303
G1 X76.212 Y57.695 E3.42492
G1 X76.212 Y61.965 E3.43682
G1 X79.91 Y64.098 E3.44871
G1 X83.607 Y61.965 E3.4606
G0 F6000 X85.874 Y65.899
G1 F300 X82.177 Y68.032 E3.47249
G1 X82.177 Y72.302 E3.48438
G1 X85.874 Y74.435 E3.49627
G1 X89.571 Y72.302 E3.50816
G1 X89.571 Y68.032 E3.52005
G1 X85.874 Y65.899 E3.53194
G0 F6000 X77.643 Y68.032
G1 F300 X73.946 Y65.899 E3.54383
G1 X70.248 Y68.032 E3.55572
G1 X70.248 Y72.302 E3.56762
G1 X73.946 Y74.435 E3.57951
G1 X77.643 Y72.302 E3.5914
G1 X77.643 Y68.032 E3.60329
G0 F6000 X71.679 Y61.965
G1 F300 X71.679 Y57.695 E3.61519
G1 X67.981 Y55.562 E3.62708
G1 X64.284 Y57.695 E3.63897
G1 X64.284 Y61.965 E3.65086
G1 X67.981 Y64.098 E3.66275
G1 X71.679 Y61.965 E3.67464
G0 F6000 X65.714 Y68.032
G1 F300 X62.017 Y65.899 E3.68653
G1 X58.32 Y68.032 E3.69842
G1 X58.32 Y72.302 E3.71032
G1 X62.017 Y74.435 E3.72221
G1 X65.714 Y72.302 E3.7341
G1 X65.714 Y68.032 E3.74599
G0 F6000 X59.75 Y61.965
G1 F300 X59.75 Y57.695 E3.75788
G1 X56.053 Y55.562 E3.76977
G1 X52.356 Y57.695 E3.78166
G1 X52.356 Y61.965 E3.79356
G1 X56.053 Y64.098 E3.80545
G1 X59.75 Y61.965 E3.81733
G0 F6000 X53.786 Y68.032
G1 F300 X50.089 Y65.899 E3.82922
G1 X46.392 Y68.032 E3.84111
G1 X46.392 Y72.302 E3.85301
G1 X50.089 Y74.435 E3.8649
G1 X53.786 Y72.302 E3.87679
G1 X53.786 Y68.032 E3.88868
G0 F6000 X47.822 Y61.965
G1 F300 X47.822 Y57.695 E3.90057
G1 X44.125 Y55.562 E3.91246
G1 X40.428 Y57.695 E3.92435
G1 X40.428 Y61.965 E3.93625
G1 X44.125 Y64.098 E3.94814
G1 X47.822 Y61.965 E3.96003
G0 F6000 X100.642 Y52.063
G1 F300 X100.642 Y77.937 E4.0321
G1 X29.358 Y77.937 E4.23066
G1 X29.358 Y52.063 E4.30274
G1 X100.642 Y52.063 E4.5013
G0 F6000 X100.709 Y51.996
G1 F300 X100.709 Y78.004 E4.57375
G1 X29.291 Y78.004 E4.77268
G1 X29.291 Y51.996 E4.84513
G1 X100.709 Y51.996 E5.04407
G0 F6000 X83.54 Y57.734
G1 F300 X79.91 Y55.639 E5.05574
G1 X76.279 Y57.734 E5.06742
G1 X76.279 Y61.926 E5.0791
G1 X79.91 Y64.021 E5.09077
G1 X83.54 Y61.926 E5.10245
G1 X83.54 Y57.734 E5.11412
G0 F6000 X71.612 Y57.734
G1 F300 X67.981 Y55.639 E5.1258
G1 X64.351 Y57.734 E5.13748
G1 X64.351 Y61.926 E5.14915
G1 X67.981 Y64.021 E5.16083
G1 X71.612 Y61.926 E5.17251
G1 X71.612 Y57.734 E5.18418
G0 F6000 X59.683 Y57.734
G1 F300 X56.053 Y55.639 E5.19586
G1 X52.423 Y57.734 E5.20753
G1 X52.423 Y61.926 E5.21921
G1 X56.053 Y64.021 E5.23088
G1 X59.683 Y61.926 E5.24256
G1 X59.683 Y57.734 E5.25423
G0 F6000 X47.755 Y57.734
G1 F300 X44.125 Y55.639 E5.26591
G1 X40.495 Y57.734 E5.27758
G1 X40.495 Y61.926 E5.28926
G1 X44.125 Y64.021 E5.30094
G1 X47.755 Y61.926 E5.31261
G1 X47.755 Y57.734 E5.32429
G0 F6000 X53.719 Y68.071
G1 F300 X50.089 Y65.976 E5.33596
G1 X46.459 Y68.071 E5.34764
G1 X46.459 Y72.263 E5.35931
G1 X50.089 Y74.358 E5.37099
G1 X53.719 Y72.263 E5.38266
G1 X53.719 Y68.071 E5.39434
G0 F6000 X65.647 Y68.071
G1 F300 X62.017 Y65.976 E5.40601
G1 X58.387 Y68.071 E5.41769
G1 X58.387 Y72.263 E5.42937
G1 X62.017 Y74.358 E5.44104
G1 X65.647 Y72.263 E5.45272
G1 X65.647 Y68.071 E5.46439
G0 F6000 X77.576 Y68.071
G1 F300 X73.946 Y65.976 E5.47607
G1 X70.315 Y68.071 E5.48774
G1 X70.315 Y72.263 E5.49942
G1 X73.946 Y74.358 E5.5111
G1 X77.576 Y72.263 E5.52277
G1 X77.576 Y68.071 E5.53445
G0 F6000 X89.504 Y68.071
G1 F300 X85.874 Y65.976 E5.54612
G1 X82.244 Y68.071 E5.5578
G1 X82.244 Y72.263 E5.56948
G1 X85.874 Y74.358 E5.58115
G1 X89.504 Y72.263 E5.59283
G1 X89.504 Y68.071 E5.6045
G0 F6000 X89.437 Y68.11
G1 F300 X85.874 Y66.053 E5.61596
G1 X82.311 Y68.11 E5.62742
G1 X82.311 Y72.224 E5.63888
G1 X85.874 Y74.281 E5.65034
G1 X89.437 Y72.224 E5.6618
G1 X89.437 Y68.11 E5.67326
G0 F6000 X83.473 Y61.887
G1 F300 X83.473 Y57.773 E5.68472
G1 X79.91 Y55.716 E5.69618
G1 X76.346 Y57.773 E5.70764
G1 X76.346 Y61.887 E5.7191
G1 X79.91 Y63.944 E5.73057
G1 X83.473 Y61.887 E5.74203
G0 F6000 X77.509 Y68.11
G1 F300 X73.946 Y66.053 E5.75349
G1 X70.382 Y68.11 E5.76495
G1 X70.382 Y72.224 E5.77641
G1 X73.946 Y74.281 E5.78787
G1 X77.509 Y72.224 E5.79933
G1 X77.509 Y68.11 E5.81079
G0 F6000 X71.545 Y61.887
G1 F300 X71.545 Y57.773 E5.82225
G1 X67.981 Y55.716 E5.83371
G1 X64.418 Y57.773 E5.84517
G1 X64.418 Y61.887 E5.85663
G1 X67.981 Y63.944 E5.86809
G1 X71.545 Y61.887 E5.87956
G0 F6000 X65.58 Y68.11
G1 F300 X62.017 Y66.053 E5.89102
G1 X58.454 Y68.11 E5.90248
G1 X58.454 Y72.224 E5.91394
G1 X62.017 Y74.281 E5.9254
G1 X65.58 Y72.224 E5.93686
G1 X65.58 Y68.11 E5.94832
G0 F6000 X59.616 Y61.887
G1 F300 X59.616 Y57.773 E5.95978
G1 X56.053 Y55.716 E5.97124
G1 X52.49 Y57.773 E5.9827
G1 X52.49 Y61.887 E5.99416
G1 X56.053 Y63.944 E6.00562
G1 X59.616 Y61.887 E6.01708
G0 F6000 X53.652 Y68.11
G1 F300 X50.089 Y66.053 E6.02854
G1 X46.526 Y68.11 E6.04
G1 X46.526 Y72.224 E6.05146
G1 X50.089 Y74.281 E6.06292
G1 X53.652 Y72.224 E6.07438
G1 X53.652 Y68.11 E6.08584
G0 F6000 X47.688 Y61.887
G1 F300 X47.688 Y57.773 E6.0973
G1 X44.125 Y55.716 E6.10876
G1 X40.562 Y57.773 E6.12022
G1 X40.562 Y61.887 E6.13168
G1 X44.125 Y63.944 E6.14314
G1 X47.688 Y61.887 E6.1546
G0 F6000 X100.776 Y78.071
G1 F300 X29.224 Y78.071 E6.35391
G1 X29.224 Y51.929 E6.42673
G1 X100.776 Y51.929 E6.62604
G1 X100.776 Y78.071 E6.69886
G0 F6000 X100.842 Y78.137
;TYPE:WALL-OUTER
G1 F300 X29.158 Y78.137 E6.89853
G1 X29.158 Y51.863 E6.97172
G1 X100.842 Y51.863 E7.1714
G1 X100.842 Y78.137 E7.24459
G0 F6000 X100.82 Y78.137
G0 X89.371 Y72.186
G1 F300 X89.371 Y68.148 E7.25584
G1 X85.874 Y66.129 E7.26708
G1 X82.377 Y68.148 E7.27833
G1 X82.377 Y72.186 E7.28958
G1 X85.874 Y74.205 E7.30083
G1 X89.371 Y72.186 E7.31207
G0 F6000 X89.371 Y72.164
G0 X77.443 Y72.186
G1 F300 X77.443 Y68.148 E7.32332
G1 X73.946 Y66.129 E7.33457
G1 X70.448 Y68.148 E7.34582
G1 X70.448 Y72.186 E7.35707
G1 X73.946 Y74.205 E7.36832
G1 X77.443 Y72.186 E7.37957
G0 F6000 X77.443 Y72.164
G0 X65.514 Y72.186
G1 F300 X65.514 Y68.148 E7.39082
G1 X62.017 Y66.129 E7.40206
G1 X58.52 Y68.148 E7.41331
G1 X58.52 Y72.186 E7.42456
G1 X62.017 Y74.205 E7.43581
G1 X65.514 Y72.186 E7.44706
G0 F6000 X65.514 Y72.164
G0 X53.586 Y72.186
G1 F300 X53.586 Y68.148 E7.4583
G1 X50.089 Y66.129 E7.46955
G1 X46.592 Y68.148 E7.4808
G1 X46.592 Y72.186 E7.49205
G1 X50.089 Y74.205 E7.5033
G1 X53.586 Y72.186 E7.51454
G0 F6000 X53.586 Y72.164
G0 X47.622 Y61.849
G1 F300 X47.622 Y57.811 E7.52579
G1 X44.125 Y55.792 E7.53704
G1 X40.628 Y57.811 E7.54829
G1 X40.628 Y61.849 E7.55954
G1 X44.125 Y63.868 E7.57078
G1 X47.622 Y61.849 E7.58203
G0 F6000 X47.622 Y61.827
G0 X59.55 Y61.849
G1 F300 X59.55 Y57.811 E7.59328
G1 X56.053 Y55.792 E7.60453
G1 X52.556 Y57.811 E7.61578
G1 X52.556 Y61.849 E7.62702
G1 X56.053 Y63.868 E7.63827
G1 X59.55 Y61.849 E7.64952
G0 F6000 X59.55 Y61.827
G0 X71.479 Y61.849
G1 F300 X71.479 Y57.811 E7.66077
G1 X67.981 Y55.792 E7.67202
G1 X64.484 Y57.811 E7.68327
G1 X64.484 Y61.849 E7.69451
G1 X67.981 Y63.868 E7.70576
G1 X71.479 Y61.849 E7.71701
G0 F6000 X71.479 Y61.827
G0 X83.407 Y61.849
G1 F300 X83.407 Y57.811 E7.72826
G1 X79.91 Y55.792 E7.73951
G1 X76.412 Y57.811 E7.75076
G1 X76.412 Y61.849 E7.76201
G1 X79.91 Y63.868 E7.77326
G1 X83.407 Y61.849 E7.7845
G0 F6000 X83.407 Y61.827
G0 X100.409 Y52.37
;TYPE:SKIN
G1 F300 X100.333 Y52.294 E7.7848
G0 F6000 X100.238 Y52.294
G1 F300 X100.409 Y52.465 E7.78548
G0 F6000 X100.409 Y52.559
G1 F300 X100.143 Y52.294 E7.78652
G0 F6000 X100.049 Y52.294
G1 F300 X100.409 Y52.654 E7.78794
G0 F6000 X100.409 Y52.749
G1 F300 X99.954 Y52.294 E7.78973
G0 F6000 X99.859 Y52.294
G1 F300 X100.409 Y52.844 E7.7919
G0 F6000 X100.409 Y52.938
G1 F300 X99.764 Y52.294 E7.79444
G0 F6000 X99.67 Y52.294
G1 F300 X100.409 Y53.033 E7.79735
G0 F6000 X100.409 Y53.128
G1 F300 X99.575 Y52.294 E7.80064
G0 F6000 X99.48 Y52.294
G1 F300 X100.409 Y53.223 E7.8043
G0 F6000 X100.409 Y53.317
G1 F300 X99.385 Y52.294 E7.80833
G0 F6000 X99.291 Y52.294
G1 F300 X100.409 Y53.412 E7.81273
G0 F6000 X100.409 Y53.507
G1 F300 X99.196 Y52.294 E7.81751
G0 F6000 X99.101 Y52.294
G1 F300 X100.409 Y53.602 E7.82266
G0 F6000 X100.409 Y53.696
G1 F300 X99.006 Y52.294 E7.82819
G0 F6000 X98.912 Y52.294
G1 F300 X100.409 Y53.791 E7.83409
G0 F6000 X100.409 Y53.886
G1 F300 X98.817 Y52.294 E7.84036
G0 F6000 X98.722 Y52.294
G1 F300 X100.409 Y53.981 E7.847
G0 F6000 X100.409 Y54.075
G1 F300 X98.627 Y52.294 E7.85402
G0 F6000 X98.533 Y52.294
G1 F300 X100.409 Y54.17 E7.86141
G0 F6000 X100.409 Y54.265
G1 F300 X98.438 Y52.294 E7.86917
G0 F6000 X98.343 Y52.294
G1 F300 X100.409 Y54.36 E7.87731
G0 F6000 X100.409 Y54.455
G1 F300 X98.248 Y52.294 E7.88583
G0 F6000 X98.154 Y52.294
G1 F300 X100.409 Y54.549 E7.89471
G0 F6000 X100.409 Y54.644
G1 F300 X98.059 Y52.294 E7.90397
G0 F6000 X97.964 Y52.294
G1 F300 X100.409 Y54.739 E7.9136
G0 F6000 X100.409 Y54.834
G1 F300 X97.869 Y52.294 E7.9236
G0 F6000 X97.775 Y52.294
G1 F300 X100.409 Y54.928 E7.93398
G0 F6000 X100.409 Y55.023
G1 F300 X97.68 Y52.294 E7.94473
G0 F6000 X97.585 Y52.294
G1 F300 X100.409 Y55.118 E7.95586
G0 F6000 X100.409 Y55.213
G1 F300 X97.49 Y52.294 E7.96736
G0 F6000 X97.396 Y52.294
G1 F300 X100.409 Y55.307 E7.97922
G0 F6000 X100.409 Y55.402
G1 F300 X97.301 Y52.294 E7.99147
G0 F6000 X97.206 Y52.294
G1 F300 X100.409 Y55.497 E8.00409
G0 F6000 X100.409 Y55.592
G1 F300 X97.111 Y52.294 E8.01708
G0 F6000 X97.017 Y52.294
G1 F300 X100.409 Y55.686 E8.03044
G0 F6000 X100.409 Y55.781
G1 F300 X96.922 Y52.294 E8.04418
G0 F6000 X96.827 Y52.294
G1 F300 X100.409 Y55.876 E8.05829
G0 F6000 X100.409 Y55.971
G1 F300 X96.732 Y52.294 E8.07277
G0 F6000 X96.638 Y52.294
G1 F300 X100.409 Y56.065 E8.08763
G0 F6000 X100.409 Y56.16
G1 F300 X96.543 Y52.294 E8.10286
G0 F6000 X96.448 Y52.294
G1 F300 X100.409 Y56.255 E8.11846
G0 F6000 X100.409 Y56.35
G1 F300 X96.353 Y52.294 E8.13444
G0 F6000 X96.259 Y52.294
G1 F300 X100.409 Y56.444 E8.15079
G0 F6000 X100.409 Y56.539
G1 F300 X96.164 Y52.294 E8.16751
G0 F6000 X96.069 Y52.294
G1 F300 X100.409 Y56.634 E8.18461
G0 F6000 X100.409 Y56.729
G1 F300 X95.974 Y52.294 E8.20208
G0 F6000 X95.88 Y52.294
G1 F300 X100.409 Y56.823 E8.21992
G0 F6000 X100.409 Y56.918
G1 F300 X95.785 Y52.294 E8.23813
G0 F6000 X95.69 Y52.294
G1 F300 X100.409 Y57.013 E8.25672
G0 F6000 X100.409 Y57.108
G1 F300 X95.595 Y52.294 E8.27569
G0 F6000 X95.501 Y52.294
G1 F300 X100.409 Y57.202 E8.29502
G0 F6000 X100.409 Y57.297
G1 F300 X95.406 Y52.294 E8.31473
G0 F6000 X95.311 Y52.294
G1 F300 X100.409 Y57.392 E8.33481
G0 F6000 X100.409 Y57.487
G1 F300 X95.216 Y52.294 E8.35527
G0 F6000 X95.122 Y52.294
G1 F300 X100.409 Y57.581 E8.3761
G0 F6000 X100.409 Y57.676
G1 F300 X95.027 Y52.294 E8.3973
G0 F6000 X94.932 Y52.294
G1 F300 X100.409 Y57.771 E8.41887
G0 F6000 X100.409 Y57.866
G1 F300 X94.837 Y52.294 E8.44082
G0 F6000 X94.743 Y52.294
