;FLAVOR:Marlin
;TIME:7311
;Filament used: 0.888466m
;Layer height: 0.1
;MINX:25.033
;MINY:55.033
;MINZ:0.1
;MAXX:104.967
;MAXY:74.967
;MAXZ:2
;Generated with Cura_SteamEngine 4.12.1
M82 ;absolute extrusion mode
G28 ;Home
G92 E0
;LAYER_COUNT:20
;LAYER:0
M107
;MESH:Strip with holes-Body (1).stl
G0 F6000 X25.434 Y55.434 Z0.1
;TYPE:WALL-INNER
G1 F300 X104.566 Y55.434 E0.22043
G1 X104.566 Y74.566 E0.27372
G1 X25.434 Y74.566 E0.49414
G1 X25.434 Y55.434 E0.54744
G0 F6000 X43.049 Y62.169
G1 F300 X42.424 Y62.72 E0.54976
G1 X41.956 Y63.405 E0.55207
G1 X41.66 Y64.178 E0.55437
G1 X41.566 Y65 E0.55668
G1 X41.66 Y65.822 E0.55898
G1 X41.956 Y66.595 E0.56129
G1 X42.424 Y67.28 E0.5636
G1 X43.049 Y67.831 E0.56592
G1 X43.78 Y68.213 E0.56822
G1 X44.586 Y68.412 E0.57053
G1 X45.414 Y68.412 E0.57284
G1 X46.22 Y68.213 E0.57515
G1 X46.951 Y67.831 E0.57745
G1 X47.576 Y67.28 E0.57977
G1 X48.044 Y66.595 E0.58208
G1 X48.34 Y65.822 E0.58438
G1 X48.434 Y65 E0.58669
G1 X48.34 Y64.178 E0.58899
G1 X48.044 Y63.405 E0.5913
G1 X47.576 Y62.72 E0.59361
G1 X46.951 Y62.169 E0.59593
G1 X46.22 Y61.787 E0.59823
G1 X45.414 Y61.588 E0.60054
G1 X44.586 Y61.588 E0.60285
G1 X43.78 Y61.787 E0.60516
G1 X43.049 Y62.169 E0.60746
G0 F6000 X52.424 Y57.72
G1 F300 X51.956 Y58.405 E0.60977
G1 X51.66 Y59.178 E0.61207
G1 X51.566 Y60 E0.61438
G1 X51.66 Y60.822 E0.61668
G1 X51.956 Y61.595 E0.61899
G1 X52.424 Y62.28 E0.6213
G1 X53.049 Y62.831 E0.62362
G1 X53.78 Y63.213 E0.62592
G1 X54.586 Y63.412 E0.62823
G1 X55.414 Y63.412 E0.63054
G1 X56.22 Y63.213 E0.63285
G1 X56.951 Y62.831 E0.63515
G1 X57.576 Y62.28 E0.63747
G1 X58.044 Y61.595 E0.63978
G1 X58.34 Y60.822 E0.64208
G1 X58.434 Y60 E0.64439
G1 X58.34 Y59.178 E0.64669
G1 X58.044 Y58.405 E0.649
G1 X57.576 Y57.72 E0.65131
G1 X56.951 Y57.169 E0.65363
G1 X56.22 Y56.787 E0.65593
G1 X55.414 Y56.588 E0.65824
G1 X54.586 Y56.588 E0.66055
G1 X53.78 Y56.787 E0.66286
G1 X53.049 Y57.169 E0.66516
G1 X52.424 Y57.72 E0.66748
G0 F6000 X53.049 Y67.169
G1 F300 X52.424 Y67.72 E0.6698
G1 X51.956 Y68.405 E0.67211
G1 X51.66 Y69.178 E0.67442
G1 X51.566 Y70 E0.67672
G1 X51.66 Y70.822 E0.67903
G1 X51.956 Y71.595 E0.68133
G1 X52.424 Y72.28 E0.68364
G1 X53.049 Y72.831 E0.68596
G1 X53.78 Y73.213 E0.68826
G1 X54.586 Y73.412 E0.69057
G1 X55.414 Y73.412 E0.69288
G1 X56.22 Y73.213 E0.69519
G1 X56.951 Y72.831 E0.69749
G1 X57.576 Y72.28 E0.69981
G1 X58.044 Y71.595 E0.70212
G1 X58.34 Y70.822 E0.70443
G1 X58.434 Y70 E0.70673
G1 X58.34 Y69.178 E0.70904
G1 X58.044 Y68.405 E0.71134
G1 X57.576 Y67.72 E0.71365
G1 X56.951 Y67.169 E0.71597
G1 X56.22 Y66.787 E0.71827
G1 X55.414 Y66.588 E0.72058
G1 X54.586 Y66.588 E0.72289
G1 X53.78 Y66.787 E0.7252
G1 X53.049 Y67.169 E0.7275
G0 F6000 X62.424 Y62.72
G1 F300 X61.956 Y63.405 E0.72981
G1 X61.66 Y64.178 E0.73212
G1 X61.566 Y65 E0.73442
G1 X61.66 Y65.822 E0.73673
G1 X61.956 Y66.595 E0.73903
G1 X62.424 Y67.28 E0.74134
G1 X63.049 Y67.831 E0.74366
G1 X63.78 Y68.213 E0.74596
G1 X64.586 Y68.412 E0.74827
G1 X65.414 Y68.412 E0.75058
G1 X66.22 Y68.213 E0.75289
G1 X66.951 Y67.831 E0.75519
G1 X67.576 Y67.28 E0.75751
G1 X68.044 Y66.595 E0.75982
G1 X68.34 Y65.822 E0.76213
G1 X68.434 Y65 E0.76443
G1 X68.34 Y64.178 E0.76674
G1 X68.044 Y63.405 E0.76904
G1 X67.576 Y62.72 E0.77135
G1 X66.951 Y62.169 E0.77367
G1 X66.22 Y61.787 E0.77597
G1 X65.414 Y61.588 E0.77828
G1 X64.586 Y61.588 E0.78059
G1 X63.78 Y61.787 E0.7829
G1 X63.049 Y62.169 E0.7852
G1 X62.424 Y62.72 E0.78752
G0 F6000 X72.424 Y67.72
G1 F300 X71.956 Y68.405 E0.78983
G1 X71.66 Y69.178 E0.79214
G1 X71.566 Y70 E0.79444
G1 X71.66 Y70.822 E0.79675
G1 X71.956 Y71.595 E0.79905
G1 X72.424 Y72.28 E0.80136
G1 X73.049 Y72.831 E0.80369
G1 X73.78 Y73.213 E0.80598
G1 X74.586 Y73.412 E0.8083
G1 X75.414 Y73.412 E0.8106
G1 X76.22 Y73.213 E0.81291
G1 X76.951 Y72.831 E0.81521
G1 X77.576 Y72.28 E0.81753
G1 X78.044 Y71.595 E0.81984
G1 X78.34 Y70.822 E0.82215
G1 X78.434 Y70 E0.82445
G1 X78.34 Y69.178 E0.82676
G1 X78.044 Y68.405 E0.82906
G1 X77.576 Y67.72 E0.83138
G1 X76.951 Y67.169 E0.8337
G1 X76.22 Y66.787 E0.83599
G1 X75.414 Y66.588 E0.83831
G1 X74.586 Y66.588 E0.84061
G1 X73.78 Y66.787 E0.84293
G1 X73.049 Y67.169 E0.84522
G1 X72.424 Y67.72 E0.84754
G0 F6000 X72.424 Y57.72
G1 F300 X71.956 Y58.405 E0.84985
G1 X71.66 Y59.178 E0.85216
G1 X71.566 Y60 E0.85447
G1 X71.66 Y60.822 E0.85677
G1 X71.956 Y61.595 E0.85908
G1 X72.424 Y62.28 E0.86139
G1 X73.049 Y62.831 E0.86371
G1 X73.78 Y63.213 E0.866
G1 X74.586 Y63.412 E0.86832
G1 X75.414 Y63.412 E0.87062
G1 X76.22 Y63.213 E0.87294
G1 X76.951 Y62.831 E0.87523
G1 X77.576 Y62.28 E0.87755
G1 X78.044 Y61.595 E0.87987
G1 X78.34 Y60.822 E0.88217
G1 X78.434 Y60 E0.88448
G1 X78.34 Y59.178 E0.88678
G1 X78.044 Y58.405 E0.88909
G1 X77.576 Y57.72 E0.8914
G1 X76.951 Y57.169 E0.89372
G1 X76.22 Y56.787 E0.89602
G1 X75.414 Y56.588 E0.89833
G1 X74.586 Y56.588 E0.90063
G1 X73.78 Y56.787 E0.90295
G1 X73.049 Y57.169 E0.90524
G1 X72.424 Y57.72 E0.90757
G0 F6000 X82.424 Y62.72
G1 F300 X81.956 Y63.405 E0.90988
G1 X81.66 Y64.178 E0.91218
G1 X81.566 Y65 E0.91449
G1 X81.66 Y65.822 E0.91679
G1 X81.956 Y66.595 E0.9191
G1 X82.424 Y67.28 E0.92141
G1 X83.049 Y67.831 E0.92373
G1 X83.78 Y68.213 E0.92603
G1 X84.586 Y68.412 E0.92834
G1 X85.414 Y68.412 E0.93065
G1 X86.22 Y68.213 E0.93296
G1 X86.951 Y67.831 E0.93526
G1 X87.576 Y67.28 E0.93758
G1 X88.044 Y66.595 E0.93989
G1 X88.34 Y65.822 E0.94219
G1 X88.434 Y65 E0.9445
G1 X88.34 Y64.178 E0.9468
G1 X88.044 Y63.405 E0.94911
G1 X87.576 Y62.72 E0.95142
G1 X86.951 Y62.169 E0.95374
G1 X86.22 Y61.787 E0.95604
G1 X85.414 Y61.588 E0.95835
G1 X84.586 Y61.588 E0.96066
G1 X83.78 Y61.787 E0.96297
G1 X83.049 Y62.169 E0.96527
G1 X82.424 Y62.72 E0.96759
G0 F6000 X82.475 Y62.765
G1 F300 X82.016 Y63.436 E0.96985
G1 X81.726 Y64.194 E0.97211
G1 X81.633 Y65 E0.97437
G1 X81.726 Y65.806 E0.97663
G1 X82.016 Y66.564 E0.97889
G1 X82.475 Y67.235 E0.98116
G1 X83.087 Y67.775 E0.98343
G1 X83.804 Y68.15 E0.98569
G1 X84.594 Y68.345 E0.98795
G1 X85.406 Y68.345 E0.99021
G1 X86.196 Y68.15 E0.99248
G1 X86.913 Y67.775 E0.99473
G1 X87.525 Y67.235 E0.99701
G1 X87.984 Y66.564 E0.99927
G1 X88.274 Y65.806 E1.00153
G1 X88.367 Y65 E1.00379
G1 X88.274 Y64.194 E1.00605
G1 X87.984 Y63.436 E1.00831
G1 X87.525 Y62.765 E1.01058
G1 X86.913 Y62.225 E1.01285
G1 X86.196 Y61.85 E1.01511
G1 X85.406 Y61.655 E1.01737
G1 X84.594 Y61.655 E1.01963
G1 X83.804 Y61.85 E1.0219
G1 X83.087 Y62.225 E1.02415
G1 X82.475 Y62.765 E1.02643
G0 F6000 X78.274 Y60.806
G1 F300 X78.367 Y60 E1.02869
G1 X78.274 Y59.194 E1.03095
G1 X77.984 Y58.436 E1.03321
G1 X77.525 Y57.765 E1.03547
G1 X76.913 Y57.225 E1.03775
G1 X76.196 Y56.85 E1.04
G1 X75.406 Y56.655 E1.04227
G1 X74.594 Y56.655 E1.04453
G1 X73.804 Y56.85 E1.0468
G1 X73.087 Y57.225 E1.04905
G1 X72.475 Y57.765 E1.05132
G1 X72.016 Y58.436 E1.05359
G1 X71.726 Y59.194 E1.05585
G1 X71.633 Y60 E1.05811
G1 X71.726 Y60.806 E1.06037
G1 X72.016 Y61.564 E1.06263
G1 X72.475 Y62.235 E1.06489
G1 X73.087 Y62.775 E1.06717
G1 X73.804 Y63.15 E1.06942
G1 X74.594 Y63.345 E1.07169
G1 X75.406 Y63.345 E1.07395
G1 X76.196 Y63.15 E1.07622
G1 X76.913 Y62.775 E1.07847
G1 X77.525 Y62.235 E1.08074
G1 X77.984 Y61.564 E1.08301
G1 X78.274 Y60.806 E1.08527
G0 F6000 X77.525 Y67.765
G1 F300 X76.913 Y67.225 E1.08754
G1 X76.196 Y66.85 E1.0898
G1 X75.406 Y66.655 E1.09206
G1 X74.594 Y66.655 E1.09432
G1 X73.804 Y66.85 E1.09659
G1 X73.087 Y67.225 E1.09885
G1 X72.475 Y67.765 E1.10112
G1 X72.016 Y68.436 E1.10338
G1 X71.726 Y69.194 E1.10564
G1 X71.633 Y70 E1.1079
G1 X71.726 Y70.806 E1.11016
G1 X72.016 Y71.564 E1.11242
G1 X72.475 Y72.235 E1.11469
G1 X73.087 Y72.775 E1.11696
G1 X73.804 Y73.15 E1.11922
G1 X74.594 Y73.345 E1.12148
G1 X75.406 Y73.345 E1.12375
G1 X76.196 Y73.15 E1.12601
G1 X76.913 Y72.775 E1.12827
G1 X77.525 Y72.235 E1.13054
G1 X77.984 Y71.564 E1.1328
G1 X78.274 Y70.806 E1.13506
G1 X78.367 Y70 E1.13732
G1 X78.274 Y69.194 E1.13958
G1 X77.984 Y68.436 E1.14185
G1 X77.525 Y67.765 E1.14411
G0 F6000 X68.274 Y64.194
G1 F300 X67.984 Y63.436 E1.14637
G1 X67.525 Y62.765 E1.14864
G1 X66.913 Y62.225 E1.15091
G1 X66.196 Y61.85 E1.15316
G1 X65.406 Y61.655 E1.15543
G1 X64.594 Y61.655 E1.15769
G1 X63.804 Y61.85 E1.15996
G1 X63.087 Y62.225 E1.16221
G1 X62.475 Y62.765 E1.16448
G1 X62.016 Y63.436 E1.16675
G1 X61.726 Y64.194 E1.16901
G1 X61.633 Y65 E1.17127
G1 X61.726 Y65.806 E1.17353
G1 X62.016 Y66.564 E1.17579
G1 X62.475 Y67.235 E1.17806
G1 X63.087 Y67.775 E1.18033
G1 X63.804 Y68.15 E1.18258
G1 X64.594 Y68.345 E1.18485
G1 X65.406 Y68.345 E1.18711
G1 X66.196 Y68.15 E1.18938
G1 X66.913 Y67.775 E1.19163
G1 X67.525 Y67.235 E1.19391
G1 X67.984 Y66.564 E1.19617
G1 X68.274 Y65.806 E1.19843
G1 X68.367 Y65 E1.20069
G1 X68.274 Y64.194 E1.20295
G0 F6000 X58.367 Y60
G1 F300 X58.274 Y59.194 E1.20521
G1 X57.984 Y58.436 E1.20747
G1 X57.525 Y57.765 E1.20974
G1 X56.913 Y57.225 E1.21201
G1 X56.196 Y56.85 E1.21426
G1 X55.406 Y56.655 E1.21653
G1 X54.594 Y56.655 E1.21879
G1 X53.804 Y56.85 E1.22106
G1 X53.087 Y57.225 E1.22331
G1 X52.475 Y57.765 E1.22559
G1 X52.016 Y58.436 E1.22785
G1 X51.726 Y59.194 E1.23011
G1 X51.633 Y60 E1.23237
G1 X51.726 Y60.806 E1.23463
G1 X52.016 Y61.564 E1.23689
G1 X52.475 Y62.235 E1.23916
G1 X53.087 Y62.775 E1.24143
G1 X53.804 Y63.15 E1.24368
G1 X54.594 Y63.345 E1.24595
G1 X55.406 Y63.345 E1.24821
G1 X56.196 Y63.15 E1.25048
G1 X56.913 Y62.775 E1.25273
G1 X57.525 Y62.235 E1.25501
G1 X57.984 Y61.564 E1.25727
G1 X58.274 Y60.806 E1.25953
G1 X58.367 Y60 E1.26179
G0 F6000 X58.274 Y69.194
G1 F300 X57.984 Y68.436 E1.26405
G1 X57.525 Y67.765 E1.26632
G1 X56.913 Y67.225 E1.26859
G1 X56.196 Y66.85 E1.27084
G1 X55.406 Y66.655 E1.27311
G1 X54.594 Y66.655 E1.27537
G1 X53.804 Y66.85 E1.27764
G1 X53.087 Y67.225 E1.27989
G1 X52.475 Y67.765 E1.28217
G1 X52.016 Y68.436 E1.28443
G1 X51.726 Y69.194 E1.28669
G1 X51.633 Y70 E1.28895
G1 X51.726 Y70.806 E1.29121
G1 X52.016 Y71.564 E1.29347
G1 X52.475 Y72.235 E1.29574
G1 X53.087 Y72.775 E1.29801
G1 X53.804 Y73.15 E1.30026
G1 X54.594 Y73.345 E1.30253
G1 X55.406 Y73.345 E1.30479
G1 X56.196 Y73.15 E1.30706
G1 X56.913 Y72.775 E1.30931
G1 X57.525 Y72.235 E1.31159
G1 X57.984 Y71.564 E1.31385
G1 X58.274 Y70.806 E1.31611
G1 X58.367 Y70 E1.31837
G1 X58.274 Y69.194 E1.32063
G0 F6000 X48.367 Y65
G1 F300 X48.274 Y64.194 E1.32289
G1 X47.984 Y63.436 E1.32515
G1 X47.525 Y62.765 E1.32742
G1 X46.913 Y62.225 E1.32969
G1 X46.196 Y61.85 E1.33195
G1 X45.406 Y61.655 E1.33421
G1 X44.594 Y61.655 E1.33647
G1 X43.804 Y61.85 E1.33874
G1 X43.087 Y62.225 E1.34099
G1 X42.475 Y62.765 E1.34327
G1 X42.016 Y63.436 E1.34553
G1 X41.726 Y64.194 E1.34779
G1 X41.633 Y65 E1.35005
G1 X41.726 Y65.806 E1.35231
G1 X42.016 Y66.564 E1.35457
G1 X42.475 Y67.235 E1.35684
G1 X43.087 Y67.775 E1.35911
G1 X43.804 Y68.15 E1.36137
G1 X44.594 Y68.345 E1.36363
G1 X45.406 Y68.345 E1.36589
G1 X46.196 Y68.15 E1.36816
G1 X46.913 Y67.775 E1.37041
G1 X47.525 Y67.235 E1.37269
G1 X47.984 Y66.564 E1.37495
G1 X48.274 Y65.806 E1.37721
G1 X48.367 Y65 E1.37947
G0 F6000 X104.633 Y55.367
G1 F300 X104.633 Y74.633 E1.43314
G1 X25.367 Y74.633 E1.65394
G1 X25.367 Y55.367 E1.7076
G1 X104.633 Y55.367 E1.9284
G0 F6000 X104.7 Y55.3
G1 F300 X104.7 Y74.7 E1.98244
G1 X25.3 Y74.7 E2.20361
G1 X25.3 Y55.3 E2.25765
G1 X104.7 Y55.3 E2.47882
G0 F6000 X87.924 Y63.467
G1 F300 X87.474 Y62.81 E2.48104
G1 X86.875 Y62.281 E2.48327
G1 X86.172 Y61.913 E2.48548
G1 X85.398 Y61.722 E2.4877
G1 X84.602 Y61.722 E2.48992
G1 X83.828 Y61.913 E2.49214
G1 X83.125 Y62.281 E2.49435
G1 X82.526 Y62.81 E2.49657
G1 X82.076 Y63.467 E2.49879
G1 X81.792 Y64.21 E2.50101
G1 X81.7 Y65 E2.50322
G1 X81.792 Y65.79 E2.50544
G1 X82.076 Y66.533 E2.50765
G1 X82.526 Y67.19 E2.50987
G1 X83.125 Y67.719 E2.5121
G1 X83.828 Y68.087 E2.51431
G1 X84.602 Y68.278 E2.51653
G1 X85.398 Y68.278 E2.51875
G1 X86.172 Y68.087 E2.52097
G1 X86.875 Y67.719 E2.52318
G1 X87.474 Y67.19 E2.5254
G1 X87.924 Y66.533 E2.52762
G1 X88.208 Y65.79 E2.52984
G1 X88.3 Y65 E2.53205
G1 X88.208 Y64.21 E2.53427
G1 X87.924 Y63.467 E2.53648
G0 F6000 X78.208 Y59.21
G1 F300 X77.924 Y58.467 E2.5387
G1 X77.474 Y57.81 E2.54092
G1 X76.875 Y57.281 E2.54314
G1 X76.172 Y56.913 E2.54535
G1 X75.398 Y56.722 E2.54758
G1 X74.602 Y56.722 E2.54979
G1 X73.828 Y56.913 E2.55201
G1 X73.125 Y57.281 E2.55422
G1 X72.526 Y57.81 E2.55645
G1 X72.076 Y58.467 E2.55867
G1 X71.792 Y59.21 E2.56088
G1 X71.7 Y60 E2.5631
G1 X71.792 Y60.79 E2.56531
G1 X72.076 Y61.533 E2.56753
G1 X72.526 Y62.19 E2.56975
G1 X73.125 Y62.719 E2.57197
G1 X73.828 Y63.087 E2.57418
G1 X74.602 Y63.278 E2.57641
G1 X75.398 Y63.278 E2.57862
G1 X76.172 Y63.087 E2.58084
G1 X76.875 Y62.719 E2.58305
G1 X77.474 Y62.19 E2.58528
G1 X77.924 Y61.533 E2.5875
G1 X78.208 Y60.79 E2.58971
G1 X78.3 Y60 E2.59193
G1 X78.208 Y59.21 E2.59414
G0 F6000 X77.924 Y68.467
G1 F300 X77.474 Y67.81 E2.59636
G1 X76.875 Y67.281 E2.59859
G1 X76.172 Y66.913 E2.6008
G1 X75.398 Y66.722 E2.60302
G1 X74.602 Y66.722 E2.60524
G1 X73.828 Y66.913 E2.60746
G1 X73.125 Y67.281 E2.60967
G1 X72.526 Y67.81 E2.61189
G1 X72.076 Y68.467 E2.61411
G1 X71.792 Y69.21 E2.61633
G1 X71.7 Y70 E2.61854
G1 X71.792 Y70.79 E2.62076
G1 X72.076 Y71.533 E2.62297
G1 X72.526 Y72.19 E2.62519
G1 X73.125 Y72.719 E2.62742
G1 X73.828 Y73.087 E2.62963
G1 X74.602 Y73.278 E2.63185
G1 X75.398 Y73.278 E2.63407
G1 X76.172 Y73.087 E2.63629
G1 X76.875 Y72.719 E2.6385
G1 X77.474 Y72.19 E2.64072
G1 X77.924 Y71.533 E2.64294
G1 X78.208 Y70.79 E2.64516
G1 X78.3 Y70 E2.64737
G1 X78.208 Y69.21 E2.64959
G1 X77.924 Y68.467 E2.6518
G0 F6000 X68.208 Y64.21
G1 F300 X67.924 Y63.467 E2.65402
G1 X67.474 Y62.81 E2.65624
G1 X66.875 Y62.281 E2.65846
G1 X66.172 Y61.913 E2.66068
G1 X65.398 Y61.722 E2.6629
G1 X64.602 Y61.722 E2.66511
G1 X63.828 Y61.913 E2.66733
G1 X63.125 Y62.281 E2.66954
G1 X62.526 Y62.81 E2.67177
G1 X62.076 Y63.467 E2.67399
G1 X61.792 Y64.21 E2.6762
G1 X61.7 Y65 E2.67842
G1 X61.792 Y65.79 E2.68064
G1 X62.076 Y66.533 E2.68285
G1 X62.526 Y67.19 E2.68507
G1 X63.125 Y67.719 E2.6873
G1 X63.828 Y68.087 E2.68951
G1 X64.602 Y68.278 E2.69173
G1 X65.398 Y68.278 E2.69394
G1 X66.172 Y68.087 E2.69616
G1 X66.875 Y67.719 E2.69837
G1 X67.474 Y67.19 E2.7006
G1 X67.924 Y66.533 E2.70282
G1 X68.208 Y65.79 E2.70503
G1 X68.3 Y65 E2.70725
G1 X68.208 Y64.21 E2.70947
G0 F6000 X58.3 Y60
G1 F300 X58.208 Y59.21 E2.71168
G1 X57.924 Y58.467 E2.7139
G1 X57.474 Y57.81 E2.71611
G1 X56.875 Y57.281 E2.71834
G1 X56.172 Y56.913 E2.72055
G1 X55.398 Y56.722 E2.72277
G1 X54.602 Y56.722 E2.72499
G1 X53.828 Y56.913 E2.72721
G1 X53.125 Y57.281 E2.72942
G1 X52.526 Y57.81 E2.73165
G1 X52.076 Y58.467 E2.73386
G1 X51.792 Y59.21 E2.73608
G1 X51.7 Y60 E2.7383
G1 X51.792 Y60.79 E2.74051
G1 X52.076 Y61.533 E2.74273
G1 X52.526 Y62.19 E2.74494
G1 X53.125 Y62.719 E2.74717
G1 X53.828 Y63.087 E2.74938
G1 X54.602 Y63.278 E2.7516
G1 X55.398 Y63.278 E2.75382
G1 X56.172 Y63.087 E2.75604
G1 X56.875 Y62.719 E2.75825
G1 X57.474 Y62.19 E2.76048
G1 X57.924 Y61.533 E2.76269
G1 X58.208 Y60.79 E2.76491
G1 X58.3 Y60 E2.76713
G0 F6000 X58.208 Y69.21
G1 F300 X57.924 Y68.467 E2.76934
G1 X57.474 Y67.81 E2.77156
G1 X56.875 Y67.281 E2.77379
G1 X56.172 Y66.913 E2.776
G1 X55.398 Y66.722 E2.77822
G1 X54.602 Y66.722 E2.78043
G1 X53.828 Y66.913 E2.78265
G1 X53.125 Y67.281 E2.78486
G1 X52.526 Y67.81 E2.78709
G1 X52.076 Y68.467 E2.78931
G1 X51.792 Y69.21 E2.79152
G1 X51.7 Y70 E2.79374
G1 X51.792 Y70.79 E2.79596
G1 X52.076 Y71.533 E2.79817
G1 X52.526 Y72.19 E2.80039
G1 X53.125 Y72.719 E2.80262
G1 X53.828 Y73.087 E2.80483
G1 X54.602 Y73.278 E2.80705
G1 X55.398 Y73.278 E2.80926
G1 X56.172 Y73.087 E2.81148
G1 X56.875 Y72.719 E2.81369
G1 X57.474 Y72.19 E2.81592
G1 X57.924 Y71.533 E2.81814
G1 X58.208 Y70.79 E2.82035
G1 X58.3 Y70 E2.82257
G1 X58.208 Y69.21 E2.82479
G0 F6000 X48.208 Y64.21
G1 F300 X47.924 Y63.467 E2.827
G1 X47.474 Y62.81 E2.82922
G1 X46.875 Y62.281 E2.83145
G1 X46.172 Y61.913 E2.83366
G1 X45.398 Y61.722 E2.83588
G1 X44.602 Y61.722 E2.83809
G1 X43.828 Y61.913 E2.84031
G1 X43.125 Y62.281 E2.84252
G1 X42.526 Y62.81 E2.84475
G1 X42.076 Y63.467 E2.84697
G1 X41.792 Y64.21 E2.84918
G1 X41.7 Y65 E2.8514
G1 X41.792 Y65.79 E2.85362
G1 X42.076 Y66.533 E2.85583
G1 X42.526 Y67.19 E2.85805
G1 X43.125 Y67.719 E2.86028
G1 X43.828 Y68.087 E2.86249
G1 X44.602 Y68.278 E2.86471
