;FLAVOR:Marlin
;TIME:7143
;Filament used: 1.19778m
;Layer height: 0.15
;MINX:25.033
;MINY:55.033
;MINZ:0.1
;MAXX:104.967
;MAXY:74.967
;MAXZ:2.05
;Generated with Cura_SteamEngine 4.12.1
M82 ;absolute extrusion mode
G28 ;Home
G92 E0
;LAYER_COUNT:14
;LAYER:0
M107
;MESH:Strip with holes-Body (1).stl
G0 F6000 X25.033 Y55.033 Z0.1
;TYPE:WALL-OUTER
G1 F300 X104.967 Y55.033 E0.22266
G1 X104.967 Y74.967 E0.27819
G1 X25.033 Y74.967 E0.50084
G1 X25.033 Y55.033 E0.55637
G0 F6000 X25.055 Y55.033
G0 X43.277 Y62.504
G1 F300 X42.729 Y62.989 E0.55841
G1 X42.315 Y63.591 E0.56045
G1 X42.055 Y64.274 E0.56248
G1 X41.967 Y65 E0.56452
G1 X42.055 Y65.726 E0.56656
G1 X42.315 Y66.409 E0.56859
G1 X42.729 Y67.011 E0.57063
G1 X43.277 Y67.496 E0.57266
G1 X43.924 Y67.836 E0.5747
G1 X44.634 Y68.011 E0.57674
G1 X45.366 Y68.011 E0.57878
G1 X46.076 Y67.836 E0.58081
G1 X46.723 Y67.496 E0.58285
G1 X47.271 Y67.011 E0.58489
G1 X47.685 Y66.409 E0.58692
G1 X47.945 Y65.726 E0.58896
G1 X48.033 Y65 E0.591
G1 X47.945 Y64.274 E0.59303
G1 X47.685 Y63.591 E0.59507
G1 X47.271 Y62.989 E0.5971
G1 X46.723 Y62.504 E0.59914
G1 X46.076 Y62.164 E0.60118
G1 X45.366 Y61.989 E0.60322
G1 X44.634 Y61.989 E0.60525
G1 X43.924 Y62.164 E0.60729
G1 X43.277 Y62.504 E0.60933
G0 F6000 X43.261 Y62.518
G0 X52.729 Y57.989
G1 F300 X52.315 Y58.591 E0.61136
G1 X52.055 Y59.274 E0.6134
G1 X51.967 Y60 E0.61543
G1 X52.055 Y60.726 E0.61747
G1 X52.315 Y61.409 E0.61951
G1 X52.729 Y62.011 E0.62154
G1 X53.277 Y62.496 E0.62358
G1 X53.924 Y62.836 E0.62562
G1 X54.634 Y63.011 E0.62765
G1 X55.366 Y63.011 E0.62969
G1 X56.076 Y62.836 E0.63173
G1 X56.723 Y62.496 E0.63377
G1 X57.271 Y62.011 E0.6358
G1 X57.685 Y61.409 E0.63784
G1 X57.945 Y60.726 E0.63988
G1 X58.033 Y60 E0.64191
G1 X57.945 Y59.274 E0.64395
G1 X57.685 Y58.591 E0.64599
G1 X57.271 Y57.989 E0.64802
G1 X56.723 Y57.504 E0.65006
G1 X56.076 Y57.164 E0.65209
G1 X55.366 Y56.989 E0.65413
G1 X54.634 Y56.989 E0.65617
G1 X53.924 Y57.164 E0.65821
G1 X53.277 Y57.504 E0.66024
G1 X52.729 Y57.989 E0.66228
G0 F6000 X52.717 Y58.007
G0 X53.277 Y67.504
G1 F300 X52.729 Y67.989 E0.66432
G1 X52.315 Y68.591 E0.66636
G1 X52.055 Y69.274 E0.66839
G1 X51.967 Y70 E0.67043
G1 X52.055 Y70.726 E0.67247
G1 X52.315 Y71.409 E0.6745
G1 X52.729 Y72.011 E0.67654
G1 X53.277 Y72.496 E0.67857
G1 X53.924 Y72.836 E0.68061
G1 X54.634 Y73.011 E0.68265
G1 X55.366 Y73.011 E0.68469
G1 X56.076 Y72.836 E0.68672
G1 X56.723 Y72.496 E0.68876
G1 X57.271 Y72.011 E0.6908
G1 X57.685 Y71.409 E0.69283
G1 X57.945 Y70.726 E0.69487
G1 X58.033 Y70 E0.69691
G1 X57.945 Y69.274 E0.69894
G1 X57.685 Y68.591 E0.70098
G1 X57.271 Y67.989 E0.70301
G1 X56.723 Y67.504 E0.70505
G1 X56.076 Y67.164 E0.70709
G1 X55.366 Y66.989 E0.70913
G1 X54.634 Y66.989 E0.71116
G1 X53.924 Y67.164 E0.7132
G1 X53.277 Y67.504 E0.71524
G0 F6000 X53.261 Y67.518
G0 X62.729 Y62.989
G1 F300 X62.315 Y63.591 E0.71727
G1 X62.055 Y64.274 E0.71931
G1 X61.967 Y65 E0.72135
G1 X62.055 Y65.726 E0.72338
G1 X62.315 Y66.409 E0.72542
G1 X62.729 Y67.011 E0.72745
G1 X63.277 Y67.496 E0.72949
G1 X63.924 Y67.836 E0.73153
G1 X64.634 Y68.011 E0.73356
G1 X65.366 Y68.011 E0.7356
G1 X66.076 Y67.836 E0.73764
G1 X66.723 Y67.496 E0.73968
G1 X67.271 Y67.011 E0.74171
G1 X67.685 Y66.409 E0.74375
G1 X67.945 Y65.726 E0.74579
G1 X68.033 Y65 E0.74782
G1 X67.945 Y64.274 E0.74986
G1 X67.685 Y63.591 E0.7519
G1 X67.271 Y62.989 E0.75393
G1 X66.723 Y62.504 E0.75597
G1 X66.076 Y62.164 E0.75801
G1 X65.366 Y61.989 E0.76004
G1 X64.634 Y61.989 E0.76208
G1 X63.924 Y62.164 E0.76412
G1 X63.277 Y62.504 E0.76615
G1 X62.729 Y62.989 E0.76819
G0 F6000 X62.717 Y63.007
G0 X72.729 Y67.989
G1 F300 X72.315 Y68.591 E0.77023
G1 X72.055 Y69.274 E0.77226
G1 X71.967 Y70 E0.7743
G1 X72.055 Y70.726 E0.77634
G1 X72.315 Y71.409 E0.77837
G1 X72.729 Y72.011 E0.78041
G1 X73.277 Y72.496 E0.78245
G1 X73.924 Y72.836 E0.78448
G1 X74.634 Y73.011 E0.78652
G1 X75.366 Y73.011 E0.78856
G1 X76.076 Y72.836 E0.7906
G1 X76.723 Y72.496 E0.79263
G1 X77.271 Y72.011 E0.79467
G1 X77.685 Y71.409 E0.79671
G1 X77.945 Y70.726 E0.79874
G1 X78.033 Y70 E0.80078
G1 X77.945 Y69.274 E0.80282
G1 X77.685 Y68.591 E0.80485
G1 X77.271 Y67.989 E0.80689
G1 X76.723 Y67.504 E0.80892
G1 X76.076 Y67.164 E0.81096
G1 X75.366 Y66.989 E0.813
G1 X74.634 Y66.989 E0.81504
G1 X73.924 Y67.164 E0.81707
G1 X73.277 Y67.504 E0.81911
G1 X72.729 Y67.989 E0.82115
G0 F6000 X72.717 Y68.007
G0 X72.729 Y57.989
G1 F300 X72.315 Y58.591 E0.82318
G1 X72.055 Y59.274 E0.82522
G1 X71.967 Y60 E0.82726
G1 X72.055 Y60.726 E0.82929
G1 X72.315 Y61.409 E0.83133
G1 X72.729 Y62.011 E0.83336
G1 X73.277 Y62.496 E0.8354
G1 X73.924 Y62.836 E0.83744
G1 X74.634 Y63.011 E0.83947
G1 X75.366 Y63.011 E0.84151
G1 X76.076 Y62.836 E0.84355
G1 X76.723 Y62.496 E0.84559
G1 X77.271 Y62.011 E0.84763
G1 X77.685 Y61.409 E0.84966
G1 X77.945 Y60.726 E0.8517
G1 X78.033 Y60 E0.85373
G1 X77.945 Y59.274 E0.85577
G1 X77.685 Y58.591 E0.85781
G1 X77.271 Y57.989 E0.85984
G1 X76.723 Y57.504 E0.86188
G1 X76.076 Y57.164 E0.86392
G1 X75.366 Y56.989 E0.86595
G1 X74.634 Y56.989 E0.86799
G1 X73.924 Y57.164 E0.87003
G1 X73.277 Y57.504 E0.87206
G1 X72.729 Y57.989 E0.8741
G0 F6000 X72.717 Y58.007
G0 X82.729 Y62.989
G1 F300 X82.315 Y63.591 E0.87614
G1 X82.055 Y64.274 E0.87817
G1 X81.967 Y65 E0.88021
G1 X82.055 Y65.726 E0.88225
G1 X82.315 Y66.409 E0.88428
G1 X82.729 Y67.011 E0.88632
G1 X83.277 Y67.496 E0.88836
G1 X83.924 Y67.836 E0.89039
G1 X84.634 Y68.011 E0.89243
G1 X85.366 Y68.011 E0.89447
G1 X86.076 Y67.836 E0.89651
G1 X86.723 Y67.496 E0.89854
G1 X87.271 Y67.011 E0.90058
G1 X87.685 Y66.409 E0.90262
G1 X87.945 Y65.726 E0.90465
G1 X88.033 Y65 E0.90669
G1 X87.945 Y64.274 E0.90873
G1 X87.685 Y63.591 E0.91076
G1 X87.271 Y62.989 E0.9128
G1 X86.723 Y62.504 E0.91483
G1 X86.076 Y62.164 E0.91687
G1 X85.366 Y61.989 E0.91891
G1 X84.634 Y61.989 E0.92095
G1 X83.924 Y62.164 E0.92298
G1 X83.277 Y62.504 E0.92502
G1 X82.729 Y62.989 E0.92706
G0 F6000 X82.717 Y63.007
G0 X104.936 Y55.097
;TYPE:SKIN
G1 F300 X104.902 Y55.063 E0.92719
G0 F6000 X104.808 Y55.063
G1 F300 X104.936 Y55.191 E0.9277
G0 F6000 X104.936 Y55.286
G1 F300 X104.713 Y55.063 E0.92857
G0 F6000 X104.618 Y55.063
G1 F300 X104.936 Y55.381 E0.92983
G0 F6000 X104.936 Y55.476
G1 F300 X104.523 Y55.063 E0.93145
G0 F6000 X104.429 Y55.063
G1 F300 X104.936 Y55.57 E0.93345
G0 F6000 X104.936 Y55.665
G1 F300 X104.334 Y55.063 E0.93582
G0 F6000 X104.239 Y55.063
G1 F300 X104.936 Y55.76 E0.93857
G0 F6000 X104.936 Y55.855
G1 F300 X104.144 Y55.063 E0.94169
G0 F6000 X104.05 Y55.063
G1 F300 X104.936 Y55.949 E0.94518
G0 F6000 X104.936 Y56.044
G1 F300 X103.955 Y55.063 E0.94904
G0 F6000 X103.86 Y55.063
G1 F300 X104.936 Y56.139 E0.95328
G0 F6000 X104.936 Y56.234
G1 F300 X103.765 Y55.063 E0.95789
G0 F6000 X103.671 Y55.063
G1 F300 X104.936 Y56.328 E0.96288
G0 F6000 X104.936 Y56.423
G1 F300 X103.576 Y55.063 E0.96824
G0 F6000 X103.481 Y55.063
G1 F300 X104.936 Y56.518 E0.97397
G0 F6000 X104.936 Y56.613
G1 F300 X103.386 Y55.063 E0.98007
G0 F6000 X103.292 Y55.063
G1 F300 X104.936 Y56.707 E0.98655
G0 F6000 X104.936 Y56.802
G1 F300 X103.197 Y55.063 E0.9934
G0 F6000 X103.102 Y55.063
G1 F300 X104.936 Y56.897 E1.00063
G0 F6000 X104.936 Y56.992
G1 F300 X103.007 Y55.063 E1.00822
G0 F6000 X102.913 Y55.063
G1 F300 X104.936 Y57.086 E1.01619
G0 F6000 X104.936 Y57.181
G1 F300 X102.818 Y55.063 E1.02454
G0 F6000 X102.723 Y55.063
G1 F300 X104.936 Y57.276 E1.03325
G0 F6000 X104.936 Y57.371
G1 F300 X102.628 Y55.063 E1.04235
G0 F6000 X102.534 Y55.063
G1 F300 X104.936 Y57.465 E1.05181
G0 F6000 X104.936 Y57.56
G1 F300 X102.439 Y55.063 E1.06165
G0 F6000 X102.344 Y55.063
G1 F300 X104.936 Y57.655 E1.07186
G0 F6000 X104.936 Y57.75
G1 F300 X102.249 Y55.063 E1.08244
G0 F6000 X102.155 Y55.063
G1 F300 X104.936 Y57.844 E1.0934
G0 F6000 X104.936 Y57.939
G1 F300 X102.06 Y55.063 E1.10473
G0 F6000 X101.965 Y55.063
G1 F300 X104.936 Y58.034 E1.11643
G0 F6000 X104.936 Y58.129
G1 F300 X101.87 Y55.063 E1.12851
G0 F6000 X101.776 Y55.063
G1 F300 X104.936 Y58.223 E1.14096
G0 F6000 X104.936 Y58.318
G1 F300 X101.681 Y55.063 E1.15378
G0 F6000 X101.586 Y55.063
G1 F300 X104.936 Y58.413 E1.16698
G0 F6000 X104.936 Y58.508
G1 F300 X101.491 Y55.063 E1.18055
G0 F6000 X101.396 Y55.063
G1 F300 X104.936 Y58.602 E1.19449
G0 F6000 X104.936 Y58.697
G1 F300 X101.302 Y55.063 E1.20881
G0 F6000 X101.207 Y55.063
G1 F300 X104.936 Y58.792 E1.2235
G0 F6000 X104.936 Y58.887
G1 F300 X101.112 Y55.063 E1.23856
G0 F6000 X101.017 Y55.063
G1 F300 X104.936 Y58.981 E1.254
G0 F6000 X104.936 Y59.076
G1 F300 X100.923 Y55.063 E1.2698
G0 F6000 X100.828 Y55.063
G1 F300 X104.936 Y59.171 E1.28599
G0 F6000 X104.936 Y59.266
G1 F300 X100.733 Y55.063 E1.30254
G0 F6000 X100.638 Y55.063
G1 F300 X104.936 Y59.36 E1.31947
G0 F6000 X104.936 Y59.455
G1 F300 X100.544 Y55.063 E1.33678
G0 F6000 X100.449 Y55.063
G1 F300 X104.936 Y59.55 E1.35445
G0 F6000 X104.936 Y59.645
G1 F300 X100.354 Y55.063 E1.3725
G0 F6000 X100.259 Y55.063
G1 F300 X104.936 Y59.739 E1.39092
G0 F6000 X104.936 Y59.834
G1 F300 X100.165 Y55.063 E1.40972
G0 F6000 X100.07 Y55.063
G1 F300 X104.936 Y59.929 E1.42889
G0 F6000 X104.936 Y60.024
G1 F300 X99.975 Y55.063 E1.44843
G0 F6000 X99.88 Y55.063
G1 F300 X104.936 Y60.118 E1.46835
G0 F6000 X104.936 Y60.213
G1 F300 X99.786 Y55.063 E1.48863
G0 F6000 X99.691 Y55.063
G1 F300 X104.936 Y60.308 E1.50929
G0 F6000 X104.936 Y60.403
G1 F300 X99.596 Y55.063 E1.53033
G0 F6000 X99.501 Y55.063
G1 F300 X104.936 Y60.497 E1.55174
G0 F6000 X104.936 Y60.592
G1 F300 X99.407 Y55.063 E1.57352
G0 F6000 X99.312 Y55.063
G1 F300 X104.936 Y60.687 E1.59567
G0 F6000 X104.936 Y60.782
G1 F300 X99.217 Y55.063 E1.6182
G0 F6000 X99.122 Y55.063
G1 F300 X104.936 Y60.876 E1.64111
G0 F6000 X104.936 Y60.971
G1 F300 X99.028 Y55.063 E1.66438
G0 F6000 X98.933 Y55.063
G1 F300 X104.936 Y61.066 E1.68803
G0 F6000 X104.936 Y61.161
G1 F300 X98.838 Y55.063 E1.71205
G0 F6000 X98.743 Y55.063
G1 F300 X104.936 Y61.255 E1.73644
G0 F6000 X104.936 Y61.35
G1 F300 X98.649 Y55.063 E1.76121
G0 F6000 X98.554 Y55.063
G1 F300 X104.936 Y61.445 E1.78635
G0 F6000 X104.936 Y61.54
G1 F300 X98.459 Y55.063 E1.81187
G0 F6000 X98.364 Y55.063
G1 F300 X104.936 Y61.634 E1.83775
G0 F6000 X104.936 Y61.729
G1 F300 X98.27 Y55.063 E1.86401
G0 F6000 X98.175 Y55.063
G1 F300 X104.936 Y61.824 E1.89065
G0 F6000 X104.936 Y61.919
G1 F300 X98.08 Y55.063 E1.91765
G0 F6000 X97.985 Y55.063
G1 F300 X104.936 Y62.013 E1.94504
G0 F6000 X104.936 Y62.108
G1 F300 X97.891 Y55.063 E1.97279
G0 F6000 X97.796 Y55.063
G1 F300 X104.936 Y62.203 E2.00091
G0 F6000 X104.936 Y62.298
G1 F300 X97.701 Y55.063 E2.02942
G0 F6000 X97.606 Y55.063
G1 F300 X104.936 Y62.392 E2.05829
G0 F6000 X104.936 Y62.487
G1 F300 X97.512 Y55.063 E2.08754
G0 F6000 X97.417 Y55.063
G1 F300 X104.936 Y62.582 E2.11716
G0 F6000 X104.936 Y62.677
G1 F300 X97.322 Y55.063 E2.14715
G0 F6000 X97.227 Y55.063
G1 F300 X104.936 Y62.771 E2.17752
G0 F6000 X104.936 Y62.866
G1 F300 X97.133 Y55.063 E2.20825
G0 F6000 X97.038 Y55.063
G1 F300 X104.936 Y62.961 E2.23937
G0 F6000 X104.936 Y63.056
G1 F300 X96.943 Y55.063 E2.27085
G0 F6000 X96.848 Y55.063
G1 F300 X104.936 Y63.15 E2.30271
G0 F6000 X104.936 Y63.245
G1 F300 X96.754 Y55.063 E2.33495
G0 F6000 X96.659 Y55.063
G1 F300 X104.936 Y63.34 E2.36755
G0 F6000 X104.936 Y63.435
G1 F300 X96.564 Y55.063 E2.40053
G0 F6000 X96.469 Y55.063
G1 F300 X104.936 Y63.53 E2.43389
G0 F6000 X104.936 Y63.624
G1 F300 X96.375 Y55.063 E2.46761
G0 F6000 X96.28 Y55.063
G1 F300 X104.936 Y63.719 E2.50171
G0 F6000 X104.936 Y63.814
G1 F300 X96.185 Y55.063 E2.53618
G0 F6000 X96.09 Y55.063
G1 F300 X104.936 Y63.909 E2.57103
G0 F6000 X104.936 Y64.003
G1 F300 X95.996 Y55.063 E2.60625
G0 F6000 X95.901 Y55.063
G1 F300 X104.936 Y64.098 E2.64184
G0 F6000 X104.936 Y64.193
G1 F300 X95.806 Y55.063 E2.67781
G0 F6000 X95.711 Y55.063
G1 F300 X104.936 Y64.288 E2.71415
G0 F6000 X104.936 Y64.382
G1 F300 X95.617 Y55.063 E2.75086
G0 F6000 X95.522 Y55.063
G1 F300 X104.936 Y64.477 E2.78794
G0 F6000 X104.936 Y64.572
G1 F300 X95.427 Y55.063 E2.8254
G0 F6000 X95.332 Y55.063
G1 F300 X104.936 Y64.667 E2.86324
G0 F6000 X104.936 Y64.761
G1 F300 X95.238 Y55.063 E2.90144
G0 F6000 X95.143 Y55.063
G1 F300 X104.936 Y64.856 E2.94002
G0 F6000 X104.936 Y64.951
G1 F300 X95.048 Y55.063 E2.97897
G0 F6000 X94.953 Y55.063
G1 F300 X104.936 Y65.046 E3.0183
G0 F6000 X104.936 Y65.14
G1 F300 X94.859 Y55.063 E3.05799
G0 F6000 X94.764 Y55.063
G1 F300 X104.936 Y65.235 E3.09806
G0 F6000 X104.936 Y65.33
G1 F300 X94.669 Y55.063 E3.13851
G0 F6000 X94.574 Y55.063
G1 F300 X104.936 Y65.425 E3.17933
G0 F6000 X104.936 Y65.519
G1 F300 X94.48 Y55.063 E3.22052
G0 F6000 X94.385 Y55.063
G1 F300 X104.936 Y65.614 E3.26208
G0 F6000 X104.936 Y65.709
G1 F300 X94.29 Y55.063 E3.30402
G0 F6000 X94.195 Y55.063
G1 F300 X104.936 Y65.804 E3.34633
G0 F6000 X104.936 Y65.898
G1 F300 X94.101 Y55.063 E3.38902
G0 F6000 X94.006 Y55.063
G1 F300 X104.936 Y65.993 E3.43207
G0 F6000 X104.936 Y66.088
G1 F300 X93.911 Y55.063 E3.4755
G0 F6000 X93.816 Y55.063
G1 F300 X104.936 Y66.183 E3.51931
G0 F6000 X104.936 Y66.277
G1 F300 X93.722 Y55.063 E3.56348
G0 F6000 X93.627 Y55.063
G1 F300 X104.936 Y66.372 E3.60803
G0 F6000 X104.936 Y66.467
G1 F300 X93.532 Y55.063 E3.65296
G0 F6000 X93.437 Y55.063
G1 F300 X104.936 Y66.562 E3.69826
G0 F6000 X104.936 Y66.656
G1 F300 X93.343 Y55.063 E3.74393
G0 F6000 X93.248 Y55.063
G1 F300 X104.936 Y66.751 E3.78997
G0 F6000 X104.936 Y66.846
G1 F300 X93.153 Y55.063 E3.83639
G0 F6000 X93.058 Y55.063
G1 F300 X104.936 Y66.941 E3.88318
G0 F6000 X104.936 Y67.035
G1 F300 X92.964 Y55.063 E3.93034
G0 F6000 X92.869 Y55.063
G1 F300 X104.936 Y67.13 E3.97788
G0 F6000 X104.936 Y67.225
G1 F300 X92.774 Y55.063 E4.02579
G0 F6000 X92.679 Y55.063
G1 F300 X104.936 Y67.32 E4.07407
G0 F6000 X104.936 Y67.414
G1 F300 X92.585 Y55.063 E4.12273
G0 F6000 X92.49 Y55.063
G1 F300 X104.936 Y67.509 E4.17175
G0 F6000 X104.936 Y67.604
G1 F300 X92.395 Y55.063 E4.22116
G0 F6000 X92.3 Y55.063
G1 F300 X104.936 Y67.699 E4.27094
G0 F6000 X104.936 Y67.793
G1 F300 X92.206 Y55.063 E4.32108
G0 F6000 X92.111 Y55.063
G1 F300 X104.936 Y67.888 E4.37161
G0 F6000 X104.936 Y67.983
G1 F300 X92.016 Y55.063 E4.4225
G0 F6000 X91.921 Y55.063
G1 F300 X104.936 Y68.078 E4.47377
G0 F6000 X104.936 Y68.172
G1 F300 X91.827 Y55.063 E4.52541
G0 F6000 X91.732 Y55.063
G1 F300 X104.936 Y68.267 E4.57743
G0 F6000 X104.936 Y68.362
G1 F300 X91.637 Y55.063 E4.62982
G0 F6000 X91.542 Y55.063
G1 F300 X104.936 Y68.457 E4.68258
G0 F6000 X104.936 Y68.551
G1 F300 X91.447 Y55.063 E4.73572
G0 F6000 X91.353 Y55.063
G1 F300 X104.936 Y68.646 E4.78923
G0 F6000 X104.936 Y68.741
G1 F300 X91.258 Y55.063 E4.84311
G0 F6000 X91.163 Y55.063
G1 F300 X104.936 Y68.836 E4.89736
G0 F6000 X104.936 Y68.93
G1 F300 X91.068 Y55.063 E4.95199
G0 F6000 X90.974 Y55.063
G1 F300 X104.936 Y69.025 E5.00699
G0 F6000 X104.936 Y69.12
G1 F300 X90.879 Y55.063 E5.06237
G0 F6000 X90.784 Y55.063
G1 F300 X104.936 Y69.215 E5.11812
G0 F6000 X104.936 Y69.309
G1 F300 X90.689 Y55.063 E5.17424
G0 F6000 X90.595 Y55.063
G1 F300 X104.936 Y69.404 E5.23074
G0 F6000 X104.936 Y69.499
G1 F300 X90.5 Y55.063 E5.2876
G0 F6000 X90.405 Y55.063
G1 F300 X104.936 Y69.594 E5.34485
G0 F6000 X104.936 Y69.688
G1 F300 X90.31 Y55.063 E5.40246
G0 F6000 X90.216 Y55.063
G1 F300 X104.936 Y69.783 E5.46045
G0 F6000 X104.936 Y69.878
G1 F300 X90.121 Y55.063 E5.51881
G0 F6000 X90.026 Y55.063
G1 F300 X104.936 Y69.973 E5.57755
G0 F6000 X104.936 Y70.067
G1 F300 X89.931 Y55.063 E5.63665
G0 F6000 X89.837 Y55.063
G1 F300 X104.936 Y70.162 E5.69613
G0 F6000 X104.936 Y70.257
G1 F300 X89.742 Y55.063 E5.75599
G0 F6000 X89.647 Y55.063
G1 F300 X104.936 Y70.352 E5.81622
G0 F6000 X104.936 Y70.446
G1 F300 X89.552 Y55.063 E5.87682
G0 F6000 X89.458 Y55.063
G1 F300 X104.936 Y70.541 E5.93779
G0 F6000 X104.936 Y70.636
G1 F300 X89.363 Y55.063 E5.99914
G0 F6000 X89.268 Y55.063
G1 F300 X104.936 Y70.731 E6.06086
G0 F6000 X104.936 Y70.825
G1 F300 X89.173 Y55.063 E6.12295
G0 F6000 X89.079 Y55.063
G1 F300 X104.936 Y70.92 E6.18542
G0 F6000 X104.936 Y71.015
G1 F300 X88.984 Y55.063 E6.24826
G0 F6000 X88.889 Y55.063
G1 F300 X104.936 Y71.11 E6.31147
G0 F6000 X104.936 Y71.204
G1 F300 X88.794 Y55.063 E6.37506
G0 F6000 X88.7 Y55.063
