;START_OF_HEADER
;HEADER_VERSION:0.1
;FLAVOR:Griffin
;GENERATOR.NAME:Cura_SteamEngine
;GENERATOR.VERSION:4.8.0
;GENERATOR.BUILD_DATE:2020-11-10
;TARGET_MACHINE.NAME:Ultimaker S5
;EXTRUDER_TRAIN.0.INITIAL_TEMPERATURE:200
;EXTRUDER_TRAIN.0.MATERIAL.VOLUME_USED:2148
;EXTRUDER_TRAIN.0.MATERIAL.GUID:506c9f0d-e3aa-4bd4-b2d2-23e2425b1aa9
;EXTRUDER_TRAIN.0.NOZZLE.DIAMETER:0.4
;EXTRUDER_TRAIN.0.NOZZLE.NAME:AA 0.4
;BUILD_PLATE.TYPE:glass
;BUILD_PLATE.INITIAL_TEMPERATURE:60
;BUILD_VOLUME.TEMPERATURE:28
;PRINT.TIME:2609
;PRINT.GROUPS:1
;PRINT.SIZE.MIN.X:148.07
;PRINT.SIZE.MIN.Y:108.07
;PRINT.SIZE.MIN.Z:0.2
;PRINT.SIZE.MAX.X:181.93
;PRINT.SIZE.MAX.Y:131.93
;PRINT.SIZE.MAX.Z:30
;END_OF_HEADER
;Generated with Cura_SteamEngine 4.8.0
T0
M82 ;absolute extrusion mode

G92 E0
M109 S200
G280 S1
G0 Z20.001
G1 F1500 E-6.5
;LAYER_COUNT:299
;LAYER:0
M107
M204 S625
M205 X10 Y10
G0 F2571.4 X180.539 Y129.165 Z0.2
M204 S500
M205 X5 Y5
;TYPE:SKIRT
G1 F1500 E0
G1 F1200 X180.06 Y129.735 E0.0098
G1 X179.523 Y130.25 E0.0196
G1 X178.934 Y130.705 E0.0294
G1 X178.3 Y131.094 E0.0392
G1 X177.627 Y131.413 E0.049
G1 X176.924 Y131.658 E0.0588
G1 X176.199 Y131.826 E0.0686
G1 X175 Y131.93 E0.08445
G1 X155 Y131.93 E0.3478
G1 X154.257 Y131.89 E0.3576
G1 X153.522 Y131.771 E0.3674
G1 X152.804 Y131.573 E0.37721
G1 X152.112 Y131.3 E0.387
G1 X151.453 Y130.954 E0.3968
G1 X150.835 Y130.539 E0.40661
G1 X150.265 Y130.06 E0.41641
G1 X149.75 Y129.523 E0.42621
G1 X149.295 Y128.934 E0.43601
G1 X148.906 Y128.3 E0.4458
G1 X148.587 Y127.627 E0.45561
G1 X148.342 Y126.924 E0.46541
G1 X148.174 Y126.199 E0.47521
G1 X148.07 Y125 E0.49106
G1 X148.07 Y115 E0.62273
G1 X148.11 Y114.257 E0.63253
G1 X148.229 Y113.522 E0.64233
G1 X148.427 Y112.804 E0.65214
G1 X148.7 Y112.112 E0.66193
G1 X149.046 Y111.453 E0.67173
G1 X149.461 Y110.835 E0.68154
G1 X149.94 Y110.265 E0.69134
G1 X150.477 Y109.75 E0.70114
G1 X151.066 Y109.295 E0.71094
G1 X151.7 Y108.906 E0.72073
G1 X152.373 Y108.587 E0.73054
G1 X153.076 Y108.342 E0.74034
G1 X153.801 Y108.174 E0.75014
G1 X155 Y108.07 E0.76599
G1 X175 Y108.07 E1.02934
G1 X175.743 Y108.11 E1.03913
G1 X176.478 Y108.229 E1.04894
G1 X177.196 Y108.427 E1.05874
G1 X177.888 Y108.7 E1.06854
G1 X178.547 Y109.046 E1.07834
G1 X179.165 Y109.461 E1.08814
G1 X179.735 Y109.94 E1.09795
G1 X180.25 Y110.477 E1.10774
G1 X180.705 Y111.066 E1.11754
G1 X181.094 Y111.7 E1.12734
G1 X181.413 Y112.373 E1.13714
G1 X181.658 Y113.076 E1.14695
G1 X181.826 Y113.801 E1.15675
G1 X181.93 Y115 E1.17259
G1 X181.93 Y125 E1.30427
G1 X181.89 Y125.743 E1.31406
G1 X181.771 Y126.478 E1.32387
G1 X181.573 Y127.196 E1.33368
G1 X181.3 Y127.888 E1.34347
G1 X180.954 Y128.547 E1.35327
G1 X180.539 Y129.165 E1.36307
M204 S625
M205 X10 Y10
G0 F2571.4 X180.122 Y129.018
M204 S500
M205 X5 Y5
G1 F1200 X179.646 Y129.56 E1.37257
G1 X179.113 Y130.046 E1.38207
G1 X178.529 Y130.47 E1.39157
G1 X177.902 Y130.827 E1.40107
G1 X177.24 Y131.113 E1.41057
G1 X176.55 Y131.323 E1.42006
G1 X175.841 Y131.455 E1.42956
G1 X175 Y131.51 E1.44066
G1 X155 Y131.51 E1.70401
G1 X154.28 Y131.47 E1.7135
G1 X153.568 Y131.351 E1.72301
G1 X152.874 Y131.153 E1.73251
G1 X152.207 Y130.88 E1.742
G1 X151.573 Y130.535 E1.7515
G1 X150.982 Y130.122 E1.761
G1 X150.44 Y129.646 E1.77049
G1 X149.954 Y129.113 E1.77999
G1 X149.53 Y128.529 E1.7895
G1 X149.173 Y127.902 E1.799
G1 X148.887 Y127.24 E1.80849
G1 X148.677 Y126.55 E1.81799
G1 X148.545 Y125.841 E1.82748
G1 X148.49 Y125 E1.83858
G1 X148.49 Y115 E1.97026
G1 X148.53 Y114.28 E1.97975
G1 X148.649 Y113.568 E1.98926
G1 X148.847 Y112.874 E1.99876
G1 X149.12 Y112.207 E2.00825
G1 X149.465 Y111.573 E2.01775
G1 X149.878 Y110.982 E2.02725
G1 X150.354 Y110.44 E2.03674
G1 X150.887 Y109.954 E2.04624
G1 X151.471 Y109.53 E2.05575
G1 X152.098 Y109.173 E2.06525
G1 X152.76 Y108.887 E2.07474
G1 X153.45 Y108.677 E2.08424
G1 X154.159 Y108.545 E2.09373
G1 X155 Y108.49 E2.10483
G1 X175 Y108.49 E2.36818
G1 X175.72 Y108.53 E2.37767
G1 X176.432 Y108.649 E2.38718
G1 X177.126 Y108.847 E2.39668
G1 X177.793 Y109.12 E2.40617
G1 X178.427 Y109.465 E2.41568
G1 X179.018 Y109.878 E2.42517
G1 X179.56 Y110.354 E2.43467
G1 X180.046 Y110.887 E2.44417
G1 X180.47 Y111.471 E2.45367
G1 X180.827 Y112.098 E2.46317
G1 X181.113 Y112.76 E2.47267
G1 X181.323 Y113.45 E2.48216
G1 X181.455 Y114.159 E2.49166
G1 X181.51 Y115 E2.50276
G1 X181.51 Y125 E2.63443
G1 X181.47 Y125.72 E2.64392
G1 X181.351 Y126.432 E2.65343
G1 X181.153 Y127.126 E2.66293
G1 X180.88 Y127.793 E2.67242
G1 X180.535 Y128.427 E2.68193
G1 X180.122 Y129.018 E2.69142
M204 S625
M205 X10 Y10
G0 F2571.4 X179.705 Y128.866
M204 S500
M205 X5 Y5
G1 F1200 X179.232 Y129.379 E2.70061
G1 X178.704 Y129.834 E2.70979
G1 X178.127 Y130.226 E2.71897
G1 X177.508 Y130.549 E2.72816
G1 X176.857 Y130.8 E2.73735
G1 X176.181 Y130.974 E2.74654
G1 X175.49 Y131.07 E2.75573
G1 X175 Y131.09 E2.76219
G1 X155 Y131.09 E3.02553
G1 X154.303 Y131.05 E3.03473
G1 X153.616 Y130.931 E3.04391
G1 X152.947 Y130.733 E3.05309
G1 X152.304 Y130.461 E3.06229
G1 X151.698 Y130.117 E3.07146
G1 X151.134 Y129.705 E3.08066
G1 X150.621 Y129.232 E3.08985
G1 X150.166 Y128.704 E3.09903
G1 X149.774 Y128.127 E3.10821
G1 X149.451 Y127.508 E3.1174
G1 X149.2 Y126.857 E3.12659
G1 X149.026 Y126.181 E3.13578
G1 X148.93 Y125.49 E3.14497
G1 X148.91 Y125 E3.15143
G1 X148.91 Y115 E3.2831
G1 X148.95 Y114.303 E3.29229
G1 X149.069 Y113.616 E3.30147
G1 X149.267 Y112.947 E3.31066
G1 X149.539 Y112.304 E3.31985
G1 X149.883 Y111.698 E3.32903
G1 X150.295 Y111.134 E3.33822
G1 X150.768 Y110.621 E3.34741
G1 X151.296 Y110.166 E3.35659
G1 X151.873 Y109.774 E3.36578
G1 X152.492 Y109.451 E3.37497
G1 X153.143 Y109.2 E3.38416
G1 X153.819 Y109.026 E3.39335
G1 X154.51 Y108.93 E3.40253
G1 X155 Y108.91 E3.40899
G1 X175 Y108.91 E3.67234
G1 X175.697 Y108.95 E3.68153
G1 X176.384 Y109.069 E3.69071
G1 X177.053 Y109.267 E3.6999
G1 X177.696 Y109.539 E3.70909
G1 X178.302 Y109.883 E3.71827
G1 X178.866 Y110.295 E3.72746
G1 X179.379 Y110.768 E3.73665
G1 X179.834 Y111.296 E3.74583
G1 X180.226 Y111.873 E3.75501
G1 X180.549 Y112.492 E3.76421
G1 X180.8 Y113.143 E3.7734
G1 X180.974 Y113.819 E3.78259
G1 X181.07 Y114.51 E3.79177
G1 X181.09 Y115 E3.79823
G1 X181.09 Y125 E3.9299
G1 X181.05 Y125.697 E3.9391
G1 X180.931 Y126.384 E3.94828
G1 X180.733 Y127.053 E3.95746
G1 X180.461 Y127.696 E3.96666
G1 X180.117 Y128.302 E3.97583
G1 X179.705 Y128.866 E3.98503
M204 S625
M205 X10 Y10
G0 F2571.4 X179.699 Y128.173
M204 S500
M205 X5 Y5
G1 F1200 X179.29 Y128.708 E3.9939
G1 X178.82 Y129.19 E4.00276
G1 X178.296 Y129.613 E4.01163
G1 X177.726 Y129.972 E4.0205
G1 X177.118 Y130.26 E4.02936
G1 X176.48 Y130.474 E4.03822
G1 X175.82 Y130.61 E4.04709
G1 X175 Y130.67 E4.05792
G1 X155 Y130.67 E4.32126
G1 X154.328 Y130.63 E4.33013
G1 X153.665 Y130.511 E4.339
G1 X153.022 Y130.314 E4.34785
G1 X152.406 Y130.042 E4.35672
G1 X151.827 Y129.699 E4.36558
G1 X151.292 Y129.29 E4.37445
G1 X150.81 Y128.82 E4.38331
G1 X150.387 Y128.296 E4.39218
G1 X150.028 Y127.726 E4.40105
G1 X149.74 Y127.118 E4.40991
G1 X149.526 Y126.48 E4.41877
G1 X149.39 Y125.82 E4.42764
G1 X149.33 Y125 E4.43847
G1 X149.33 Y115 E4.57014
G1 X149.37 Y114.328 E4.57901
G1 X149.489 Y113.665 E4.58788
G1 X149.686 Y113.022 E4.59673
G1 X149.958 Y112.406 E4.6056
G1 X150.301 Y111.827 E4.61446
G1 X150.71 Y111.292 E4.62333
G1 X151.18 Y110.81 E4.63219
G1 X151.704 Y110.387 E4.64106
G1 X152.274 Y110.028 E4.64993
G1 X152.882 Y109.74 E4.65879
G1 X153.52 Y109.526 E4.66765
G1 X154.18 Y109.39 E4.67652
G1 X155 Y109.33 E4.68735
G1 X175 Y109.33 E4.95069
G1 X175.672 Y109.37 E4.95956
G1 X176.335 Y109.489 E4.96843
G1 X176.978 Y109.686 E4.97728
G1 X177.594 Y109.958 E4.98615
G1 X178.173 Y110.301 E4.99501
G1 X178.708 Y110.71 E5.00388
G1 X179.19 Y111.18 E5.01274
G1 X179.613 Y111.704 E5.02161
G1 X179.972 Y112.274 E5.03048
G1 X180.26 Y112.882 E5.03934
G1 X180.474 Y113.52 E5.0482
G1 X180.61 Y114.18 E5.05707
G1 X180.67 Y115 E5.0679
G1 X180.67 Y125 E5.19957
G1 X180.63 Y125.672 E5.20844
G1 X180.511 Y126.335 E5.21731
G1 X180.314 Y126.978 E5.22616
G1 X180.042 Y127.594 E5.23503
G1 X179.699 Y128.173 E5.24389
M204 S625
M205 X10 Y10
G0 F2571.4 X179.281 Y128.039
M204 S500
M205 X5 Y5
G1 F1200 X178.874 Y128.543 E5.25242
G1 X178.408 Y128.993 E5.26095
G1 X177.891 Y129.382 E5.26947
G1 X177.329 Y129.705 E5.278
G1 X176.732 Y129.956 E5.28653
G1 X176.108 Y130.132 E5.29507
G1 X175.468 Y130.229 E5.30359
G1 X175 Y130.25 E5.30976
G1 X155 Y130.25 E5.57311
G1 X154.353 Y130.21 E5.58164
G1 X153.717 Y130.091 E5.59016
G1 X153.1 Y129.894 E5.59869
G1 X152.511 Y129.623 E5.60723
G1 X151.961 Y129.281 E5.61576
G1 X151.457 Y128.874 E5.62429
G1 X151.007 Y128.408 E5.63282
G1 X150.618 Y127.891 E5.64134
G1 X150.295 Y127.329 E5.64987
G1 X150.044 Y126.732 E5.6584
G1 X149.868 Y126.108 E5.66694
G1 X149.771 Y125.468 E5.67546
G1 X149.75 Y125 E5.68163
G1 X149.75 Y115 E5.8133
G1 X149.79 Y114.353 E5.82184
G1 X149.909 Y113.717 E5.83036
G1 X150.106 Y113.1 E5.83889
G1 X150.377 Y112.511 E5.84742
G1 X150.719 Y111.961 E5.85595
G1 X151.126 Y111.457 E5.86448
G1 X151.592 Y111.007 E5.87301
G1 X152.109 Y110.618 E5.88153
G1 X152.671 Y110.295 E5.89007
G1 X153.268 Y110.044 E5.89859
G1 X153.892 Y109.868 E5.90713
G1 X154.532 Y109.771 E5.91565
G1 X155 Y109.75 E5.92182
G1 X175 Y109.75 E6.18517
G1 X175.647 Y109.79 E6.19371
G1 X176.283 Y109.909 E6.20222
G1 X176.9 Y110.106 E6.21075
G1 X177.489 Y110.377 E6.21929
G1 X178.039 Y110.719 E6.22782
G1 X178.543 Y111.126 E6.23635
G1 X178.993 Y111.592 E6.24488
G1 X179.382 Y112.109 E6.2534
G1 X179.705 Y112.671 E6.26193
G1 X179.956 Y113.268 E6.27046
G1 X180.132 Y113.892 E6.279
G1 X180.229 Y114.532 E6.28752
G1 X180.25 Y115 E6.29369
G1 X180.25 Y125 E6.42536
G1 X180.21 Y125.647 E6.4339
G1 X180.091 Y126.283 E6.44242
G1 X179.894 Y126.9 E6.45095
G1 X179.623 Y127.489 E6.45948
G1 X179.281 Y128.039 E6.46801
M204 S625
M205 X10 Y10
G0 F2571.4 X178.864 Y127.898
M204 S500
M205 X5 Y5
G1 F1200 X178.46 Y128.37 E6.47619
G1 X177.998 Y128.787 E6.48439
G1 X177.488 Y129.14 E6.49255
G1 X176.936 Y129.425 E6.50073
G1 X176.351 Y129.637 E6.50893
G1 X175.745 Y129.772 E6.5171
G1 X175 Y129.83 E6.52694
G1 X155 Y129.83 E6.79029
G1 X154.38 Y129.79 E6.79847
G1 X153.77 Y129.671 E6.80665
G1 X153.181 Y129.474 E6.81483
G1 X152.622 Y129.204 E6.82301
G1 X152.102 Y128.864 E6.83119
G1 X151.63 Y128.46 E6.83937
G1 X151.213 Y127.998 E6.84756
G1 X150.86 Y127.488 E6.85573
G1 X150.575 Y126.936 E6.86391
G1 X150.363 Y126.351 E6.8721
G1 X150.228 Y125.745 E6.88028
G1 X150.17 Y125 E6.89012
G1 X150.17 Y115 E7.02179
G1 X150.21 Y114.38 E7.02997
G1 X150.329 Y113.77 E7.03816
G1 X150.526 Y113.181 E7.04633
G1 X150.796 Y112.622 E7.05451
G1 X151.136 Y112.102 E7.06269
G1 X151.54 Y111.63 E7.07087
G1 X152.002 Y111.213 E7.07906
G1 X152.512 Y110.86 E7.08723
G1 X153.064 Y110.575 E7.09541
G1 X153.649 Y110.363 E7.1036
G1 X154.255 Y110.228 E7.11178
G1 X155 Y110.17 E7.12162
G1 X175 Y110.17 E7.38497
G1 X175.62 Y110.21 E7.39315
G1 X176.23 Y110.329 E7.40133
G1 X176.819 Y110.526 E7.40951
G1 X177.378 Y110.796 E7.41768
G1 X177.898 Y111.136 E7.42586
G1 X178.37 Y111.54 E7.43404
G1 X178.787 Y112.002 E7.44224
G1 X179.14 Y112.512 E7.45041
G1 X179.425 Y113.064 E7.45859
G1 X179.637 Y113.649 E7.46678
G1 X179.772 Y114.255 E7.47495
G1 X179.83 Y115 E7.48479
G1 X179.83 Y125 E7.61647
G1 X179.79 Y125.62 E7.62465
G1 X179.671 Y126.23 E7.63283
G1 X179.474 Y126.819 E7.64101
G1 X179.204 Y127.378 E7.64918
G1 X178.864 Y127.898 E7.65736
M204 S625
M205 X10 Y10
G0 F2571.4 X178.447 Y127.751
M204 S500
M205 X5 Y5
G1 F1200 X178.046 Y128.189 E7.66518
G1 X177.59 Y128.569 E7.673
G1 X177.087 Y128.885 E7.68082
G1 X176.547 Y129.13 E7.68863
G1 X175.978 Y129.3 E7.69645
G1 X175.392 Y129.393 E7.70426
G1 X175 Y129.41 E7.70943
G1 X155 Y129.41 E7.97278
G1 X154.408 Y129.37 E7.98059
G1 X153.826 Y129.251 E7.98841
G1 X153.266 Y129.055 E7.99622
G1 X152.737 Y128.785 E8.00404
G1 X152.249 Y128.447 E8.01186
G1 X151.811 Y128.046 E8.01968
G1 X151.431 Y127.59 E8.0275
G1 X151.115 Y127.087 E8.03532
G1 X150.87 Y126.547 E8.04312
G1 X150.7 Y125.978 E8.05094
G1 X150.607 Y125.392 E8.05876
G1 X150.59 Y125 E8.06392
G1 X150.59 Y115 E8.1956
G1 X150.63 Y114.408 E8.20341
G1 X150.749 Y113.826 E8.21123
G1 X150.945 Y113.266 E8.21904
G1 X151.215 Y112.737 E8.22687
G1 X151.553 Y112.249 E8.23468
G1 X151.954 Y111.811 E8.2425
G1 X152.41 Y111.431 E8.25032
G1 X152.913 Y111.115 E8.25814
G1 X153.453 Y110.87 E8.26595
G1 X154.022 Y110.7 E8.27377
G1 X154.608 Y110.607 E8.28158
G1 X155 Y110.59 E8.28675
G1 X175 Y110.59 E8.55009
G1 X175.592 Y110.63 E8.55791
G1 X176.174 Y110.749 E8.56573
G1 X176.734 Y110.945 E8.57354
G1 X177.263 Y111.215 E8.58136
G1 X177.751 Y111.553 E8.58918
G1 X178.189 Y111.954 E8.597
G1 X178.569 Y112.41 E8.60481
G1 X178.885 Y112.913 E8.61263
G1 X179.13 Y113.453 E8.62044
G1 X179.3 Y114.022 E8.62826
G1 X179.393 Y114.608 E8.63607
G1 X179.41 Y115 E8.64124
G1 X179.41 Y125 E8.77291
G1 X179.37 Y125.592 E8.78073
G1 X179.251 Y126.174 E8.78855
G1 X179.055 Y126.734 E8.79636
G1 X178.785 Y127.263 E8.80418
G1 X178.447 Y127.751 E8.812
M204 S625
M205 X10 Y10
G0 F2571.4 X178.031 Y127.595
M204 S500
M205 X5 Y5
G1 F1200 X177.634 Y127.997 E8.81944
G1 X177.185 Y128.339 E8.82687
G1 X176.691 Y128.614 E8.83431
G1 X176.164 Y128.816 E8.84175
G1 X175.614 Y128.942 E8.84918
G1 X175 Y128.99 E8.85728
G1 X155 Y128.99 E9.12063
G1 X154.437 Y128.95 E9.12806
G1 X153.885 Y128.831 E9.1355
G1 X153.355 Y128.635 E9.14294
G1 X152.859 Y128.367 E9.15036
G1 X152.405 Y128.031 E9.1578
G1 X152.003 Y127.634 E9.16524
G1 X151.661 Y127.185 E9.17267
G1 X151.386 Y126.691 E9.18012
G1 X151.184 Y126.164 E9.18755
G1 X151.058 Y125.614 E9.19498
G1 X151.01 Y125 E9.20309
G1 X151.01 Y115 E9.33476
G1 X151.05 Y114.437 E9.34219
G1 X151.169 Y113.885 E9.34963
G1 X151.365 Y113.355 E9.35707
G1 X151.633 Y112.859 E9.36449
G1 X151.969 Y112.405 E9.37193
G1 X152.366 Y112.003 E9.37937
G1 X152.815 Y111.661 E9.3868
G1 X153.309 Y111.386 E9.39425
G1 X153.836 Y111.184 E9.40168
G1 X154.386 Y111.058 E9.40911
G1 X155 Y111.01 E9.41722
G1 X175 Y111.01 E9.68056
G1 X175.563 Y111.05 E9.688
G1 X176.115 Y111.169 E9.69543
G1 X176.645 Y111.365 E9.70287
G1 X177.141 Y111.633 E9.7103
G1 X177.595 Y111.969 E9.71773
G1 X177.997 Y112.366 E9.72517
G1 X178.339 Y112.815 E9.7326
G1 X178.614 Y113.309 E9.74005
G1 X178.816 Y113.836 E9.74748
G1 X178.942 Y114.386 E9.75491
G1 X178.99 Y115 E9.76302
G1 X178.99 Y125 E9.89469
G1 X178.95 Y125.563 E9.90213
G1 X178.831 Y126.115 E9.90956
G1 X178.635 Y126.645 E9.917
G1 X178.367 Y127.141 E9.92442
G1 X178.031 Y127.595 E9.93186
M204 S625
M205 X10 Y10
G0 F2571.4 X177.949 Y127.013
M204 S500
M205 X5 Y5
G1 F1200 X177.615 Y127.43 E9.9389
G1 X177.224 Y127.793 E9.94592
G1 X176.782 Y128.093 E9.95296
G1 X176.301 Y128.325 E9.95999
G1 X175.79 Y128.481 E9.96702
G1 X175 Y128.57 E9.97749
G1 X155 Y128.57 E10.24084
G1 X154.467 Y128.53 E10.24788
G1 X153.947 Y128.411 E10.2549
G1 X153.45 Y128.216 E10.26193
G1 X152.987 Y127.949 E10.26897
G1 X152.57 Y127.615 E10.276
G1 X152.207 Y127.224 E10.28303
G1 X151.907 Y126.782 E10.29006
G1 X151.675 Y126.301 E10.29709
G1 X151.519 Y125.79 E10.30413
G1 X151.43 Y125 E10.3146
G1 X151.43 Y115 E10.44627
G1 X151.47 Y114.467 E10.45331
G1 X151.589 Y113.947 E10.46033
G1 X151.784 Y113.45 E10.46736
G1 X152.051 Y112.987 E10.4744
G1 X152.385 Y112.57 E10.48144
G1 X152.776 Y112.207 E10.48846
G1 X153.218 Y111.907 E10.49549
G1 X153.699 Y111.675 E10.50253
G1 X154.21 Y111.519 E10.50956
G1 X155 Y111.43 E10.52003
G1 X175 Y111.43 E10.78338
G1 X175.533 Y111.47 E10.79042
G1 X176.053 Y111.589 E10.79744
G1 X176.55 Y111.784 E10.80447
G1 X177.013 Y112.051 E10.81151
G1 X177.43 Y112.385 E10.81854
G1 X177.793 Y112.776 E10.82557
G1 X178.093 Y113.218 E10.8326
G1 X178.325 Y113.699 E10.83963
G1 X178.481 Y114.21 E10.84667
G1 X178.57 Y115 E10.85714
G1 X178.57 Y125 E10.98881
G1 X178.53 Y125.533 E10.99585
G1 X178.411 Y126.053 E11.00287
G1 X178.216 Y126.55 E11.0099
G1 X177.949 Y127.013 E11.01694
M204 S625
M205 X10 Y10
G0 F2571.4 X177.531 Y126.875
M204 S500
M205 X5 Y5
G1 F1200 X177.201 Y127.253 E11.02355
G1 X176.816 Y127.574 E11.03015
G1 X176.384 Y127.83 E11.03676
G1 X175.917 Y128.013 E11.04336
G1 X175.428 Y128.121 E11.04996
G1 X175 Y128.15 E11.05561
G1 X155 Y128.15 E11.31895
G1 X154.5 Y128.11 E11.32556
G1 X154.013 Y127.991 E11.33216
